!!!COM: Scriabin, Alexander
!!!OTL: Sonata No. 5
!!!OPS: 53
!!!ODT: 1907
!!!AGN: Sonata
**kern	**kern	**kern
*staff3	*staff2	*staff1
*clefF4	*clefF4	*clefF4
*k[f#c#g#d#a#e#]	*k[f#c#g#d#a#e#]	*k[f#c#g#d#a#e#]
*F#:	*F#:	*F#:
*M2/4	*M2/4	*M2/4
=1	=1	=1
2r	16DDD#LL	2EEn
.	16AAAn	.
.	16DDD#	.
.	16AAAJJ	.
.	16DDD#LL	.
.	16AAA	.
.	16DDD#	.
.	16AAAJJ	.
=2	=2	=2
2r	16DDD#LL	2EEn
.	16AAAn	.
.	16DDD#	.
.	16AAAJJ	.
.	16DDD#LL	.
.	16AAA	.
.	16DDD#	.
.	16AAAJJ	.
=3	=3	=3
2r	16DDD#LL	40r
.	.	40EEnLLL
.	.	40AAn
.	16AAAn	.
.	.	40BB
.	.	40C#JJ
.	16EEn	8D#J
.	16AAAJJ	.
.	16DDD#LL	4EE
.	16AAA	.
.	16DDD#	.
.	16AAAJJ	.
=4	=4	=4
2r	16DDD#LL	2EEn
.	16AAAn	.
.	16DDD#	.
.	16AAAJJ	.
.	16DDD#LL	.
.	16AAA	.
.	16DDD#	.
.	16AAAJJ	.
=5	=5	=5
2r	16DDD#LL	40r
.	.	40EEnLLL
.	.	40AAn
.	16AAAn	.
.	.	40BB
.	.	40C#JJ
.	16EEn	8D#J
.	16AAAJJ	.
.	16DDD#LL	4EE
.	16AAA	.
.	16DDD#	.
.	16AAAJJ	.
=6	=6	=6
2r	16DDD#LL	2EEn
.	16AAAn	.
.	16DDD#	.
.	16AAAJJ	.
.	16DDD#LL	.
.	16AAA	.
.	16DDD#	.
.	16AAAJJ	.
=7	=7	=7
2r	16DDD#LL	40r
.	.	40EEnLLL
.	.	40AAn
.	16AAAn	.
.	.	40BB
.	.	40C#JJ
.	16DDD#	8D#J
.	16AAAJJ	.
.	12EEnL	40r
.	.	40AALLL
.	.	40C#
.	.	40En
.	12AAA	.
.	.	40F#JJ
.	.	8G#J
.	12EEJ	.
=8	=8	=8
2r	16DD#LL	40rD
.	.	40EnLLL
.	.	40An
.	16AAn	.
.	.	40B
.	.	40c#JJ
.	16DD#	8d#J
.	16AAJJ	.
*	*	*clefG2
.	8En	40r
.	.	40AnLLL
.	.	40c#
.	.	40en
.	.	40f#JJ
.	8r	8g#J
=9	=9	=9
.	8qD#/	.
2r	8An	8r
.	.	32qqen/LLL
.	.	32qqan/
.	.	32qqb/
.	.	32qqcc#/JJJ
.	8r	8dd#
.	8qA/	.
.	8en	8r
.	.	32qqa/LLL
.	.	32qqcc#/
.	.	32qqeen/
.	.	32qqff#/JJJ
.	8r	8gg#
*	*clefG2	*
=10	=10	=10
.	8qd#/	.
2r	8an	8r
.	.	32qqeen/LLL
.	.	32qqaan/
.	.	32qqbb/
.	.	32qqccc#/JJJ
.	8r	8ddd#
.	8qa/	.
.	8een	8r
.	.	32qqaa/LLL
.	.	32qqccc#/
.	.	32qqeeen/
.	.	32qqfff#/JJJ
.	8r	8ggg#
=11	=11	=11
.	8qdd#/	.
2r	8aan	8r
.	.	32qqeeen/LLL
.	.	32qqaaan/
.	.	32qqbbb/
.	.	32qqcccc#/JJJ
.	8r	8dddd#
.	8qaa/	.
.	8eeen	8r
.	.	32qqaaa/LLL
.	.	32qqcccc#/
.	.	32qqeeeen/
.	.	32qqffff#/JJJ
.	8r	8gggg#
=12	=12	=12
2r	2r	2r
=13	=13	=13
*M5/8	*M5/8	*M5/8
*	*	*^
3...r	[4.en [4.f# [4.a#X	4.raa	8rc
.	.	.	[4gg#
.	4e] 4f#] 4a#]	4raa	4gg#]
=14	=14	=14	=14
3...r	[4.A# [4.en [4.g#	8raa	[4.dd#
.	.	8ddd#L	.
.	.	[8fff#J	.
.	4A#] 4e] 4g#]	8fff#L]	4dd#]
.	.	8ddd#J	.
=15	=15	=15	=15
3...r	[4.en [4.f# [4.a#	4.raa	8rc
.	.	.	[4gg#
.	4e] 4f#] 4a#]	4raa	4gg#]
=16	=16	=16	=16
3...r	[4.A# [4.en [4.g#	8raa	[4.dd#
.	.	8ddd#L	.
.	.	[8fff#J	.
.	4A#] 4e] 4g#]	8fff#L]	4dd#]
.	.	8ddd#J	.
*	*	*v	*v
=17	=17	=17
*M4/8	*M4/8	*M4/8
*	*^	*
2r	2a#	[2en [2f#	8r
.	.	.	[8gg#
.	.	.	4gg#]
*	*v	*v	*
=18	=18	=18
*M6/8	*M6/8	*M6/8
*	*^	*
2.r	2.dd#	2.e] 2.f#]	8r
.	.	.	[4bb
.	.	.	4.bb]
=19	=19	=19	=19
*	*	*	*^
2.r	8raa	8rc	8raa	8rc
.	[4ddn	[4en [4f# [4a#	4eeen	[4gg#
.	4dd]	4.e_ 4.f#_ 4.a#_	4bb#X	4.gg#_
.	8cc#	.	8ccc#	.
=20	=20	=20	=20	=20
2.r	2.b#X	2.e] 2.f#] 2.a#]	8dddn	2.gg#]
.	.	.	4ggg#	.
.	.	.	4ggg#	.
.	.	.	8ggg#	.
*	*v	*v	*	*
=21	=21	=21	=21
*	*clefF4	*	*
*	*	*v	*v
*M5/8	*M5/8	*M5/8
*	*	*^
3...r	[4.En [4.A# [4.dn	8raa	[4.g#
.	.	8ddnL	.
.	.	[8ff#J	.
.	4E_ 4A#_ 4d_	8ff#L]	4g#_
.	.	[8ddJ	.
*	*	*v	*v
=22	=22	=22
*M3/8	*M3/8	*M3/8
*	*	*^
4.r	4.E] 4.A#] 4.d]	4.dd]	4.g#]
*	*clefG2	*	*
*	*	*v	*v
=23	=23	=23
*M6/8	*M6/8	*M6/8
*	*^	*^
2.r	8raa	8rc	8raa	8rc
.	[4ddn	[4en [4f# [4a#	4eeen	[4gg#
.	4dd]	4.e_ 4.f#_ 4.a#_	4bb#X	4.gg#_
.	8cc#	.	8ccc#	.
=24	=24	=24	=24	=24
2.r	2.b#X	2.e] 2.f#] 2.a#]	8dddn	2.gg#]
.	.	.	4ggg#	.
.	.	.	4ggg#	.
.	.	.	8ggg#	.
*	*v	*v	*	*
*	*clefF4	*	*
*	*	*v	*v
=25	=25	=25
*M5/8	*M5/8	*M5/8
*	*	*^
3...r	[4.En [4.A# [4.dn	8raa	[4.g#
.	.	8ddnL	.
.	.	[8ff#J	.
.	4E] 4A#] 4d]	8ff#L]	4g#]
.	.	8ddJ	.
=26	=26	=26	=26
3...r	[4.AA# [4.En [4.G# [4.d#X	8raa	[4.g#
.	.	8dd#XL	.
.	.	[8ff#J	.
.	4AA#] 4E] 4G#] 4d#]	8ff#L]	4g#]
.	.	8dd#J	.
=27	=27	=27	=27
3...r	[4.En [4.A# [4.dn	8raa	[4.g#
.	.	8ddnL	.
.	.	[8ff#J	.
.	4E] 4A#] 4d]	8ff#L]	4g#]
.	.	8ddJ	.
=28	=28	=28	=28
3...r	[4.A# [4.c# [4.en	8raa	[4.g#
.	.	8cc#L	.
.	.	[8ff#J	.
.	4A#] 4c#] 4e]	8ff#L]	4g#]
.	.	8cc#J	.
*	*clefG2	*	*
=29	=29	=29	=29
*	*^	*	*
3...r	[4a#	[4en	8rb	8rb
.	.	.	[8gg#	8gg#
.	4.a#]	4.e]	8gg#]	8gg#L
.	.	.	8raa	8ggn
.	.	.	8raa	8ff#J
*	*v	*v	*	*
*	*	*v	*v
=30	=30	=30
*M6/8	*M6/8	*M6/8
*	*^	*^
2.r	2.gn	4.c#	8raa	4ffn
.	.	.	[4bb	.
.	.	.	.	8een
.	.	4.en	4.bb]	8dd#L
.	.	.	.	8ddn
.	.	.	.	8cc#J
*	*v	*v	*	*
=31	=31	=31	=31
2.r	[4.A# [4.en [4.g#X	8raa	4.b#X 4.gg#
.	.	4eeen	.
.	4A#] 4e] 4g#]	4bb#X	4een 4gg#
.	8Gn 8c# 8fn	8cc# 8ccc#	8ffn 8aan
*	*	*v	*v
*	*clefF4	*
=32	=32	=32
2.r	8EnL	4ddn 4ff#X 4aa#X 4dddn
.	8A#	.
.	8dnJ	[8gg# [8ddd [8ggg#
*	*clefG2	*
.	8f#L	4gg#] 4ddd] 4ggg#]
.	8a#	.
.	8ddnJ	[8gg# [8ddd [8ggg#
=33	=33	=33
2.r	8ff#L	4gg#] 4ddd] 4ggg#]
.	8aa#	.
.	8dddnJ	[8ggg#
.	4r	4ggg#]
.	8r	8ggg#
*	*clefF4	*
=34	=34	=34
*M5/8	*M5/8	*M5/8
*	*^	*^
*	*	*^	*	*
3...r	[4.f#	8rEE	8f#\L	3...ryy	8r
.	.	[4c#	8c#\	.	[4g#
.	.	.	[8A#\J	.	.
.	4f#]	4c#]	4En\ 4A#]	.	8g#L]
.	.	.	.	.	[8d#XJ
=35	=35	=35	=35	=35	=35
3...r	[4.f#	8rEE	8f#\L	8raa	4.d#_
.	.	[4B#X	8B#\	8dd#L	.
.	.	.	[8A#\J	[8ff#J	.
.	4f#]	4B#]	4En\ 4A#]	8ff#L]	4d#]
.	.	.	.	8dd#J	.
*	*v	*v	*v	*	*
*	*	*v	*v
=36	=36	=36
*M6/8	*M6/8	*M6/8
2.r	8EnL	4r
.	8A#	.
.	8dnJ	[8gg# [8dddn [8ggg#
*	*clefG2	*
.	8f#L	4gg#] 4ddd] 4ggg#]
.	8a#	.
.	8ddnJ	[8gg# [8ddd [8ggg#
=37	=37	=37
2.r	8ff#L	4gg#] 4ddd] 4ggg#]
.	8aa#	.
.	8dddnJ	[8ggg#
.	4r	4ggg#]
.	8r	8ggg#
*	*clefF4	*
=38	=38	=38
*	*	*^
2.r	8f#L	2.ryy	8r
.	8c#	.	[4g#
.	8A#J	.	.
.	8En	.	8g#]
.	8r	.	[4d#X
.	8f#	.	.
=39	=39	=39	=39
2.r	8B#XL	8raa	4.d#_
.	8A#	8dd#L	.
.	8EnJ	[8ff#J	.
.	4r	8ff#L]	4d#]
.	.	8dd#J	.
.	8fn	8raa	8rc
*	*	*v	*v
=40	=40	=40
*M5/8	*M5/8	*M5/8
3...r	8d-XL	4.a-X
.	8B-X	.
.	8E-XJ	.
.	8r	8e-X
.	8fn	8r
=41	=41	=41
3...r	8e-XL	4.a-X
.	8d-X	.
.	8B-XJ	.
.	8E-X	8e-X
.	8An	8r
=42	=42	=42
*M6/8	*M6/8	*M6/8
2.r	8GnL	8r
.	8Fn	[4cn [4dn [4fn [4an
.	8DnJ	.
.	8GGn	8cL] 8d] 8f] 8a]
.	8r	8AnJ
.	8An	8r
=43	=43	=43
2.r	8GnL	8r
.	8Fn	4cn 4fn 4an
.	8DnJ	.
.	8GGn	8enL 8a 8ccn
.	8r	8AnJ 8c 8e
.	8d#X	8r
=44	=44	=44
2.r	8c#XL	8r
.	8B	[4f#X [4g#X [4b [4dd#X
.	8D#XJ	.
.	4GG#X	8f#L] 8g#] 8b] 8dd#]
.	.	8d#XJ
.	8CC#X	8r
=45	=45	=45
2.r	16%3B	8r
.	.	4f# 4b 4dd#
.	16%3D#	.
.	16%3GG#	4a# 4dd# 4ff#
.	16%3CC#	.
.	.	8d# 8f# 8a#
=46	=46	=46
2.r	2.r	2.r
=47||	=47||	=47||
2.r	16%3B	8r
.	.	4f# 4b 4dd#
.	16%3D#	.
.	16%3GG#	4a# 4dd# 4ff#
.	16%3CC#	.
.	.	8d# 8f# 8a#
=48	=48	=48
2.r	16%3B	8d# 8f# 8b
.	.	[4f# [4a# [4dd#
.	16%3D#	.
.	16%3GG#	8f#L] 8a#] 8dd#]
.	.	8d# 8f# 8a#
.	16%3CC#	.
.	.	8BJ 8d# 8g#
=49	=49	=49
2.r	16%3B	4d# 4f# 4a#
.	16%3D#	.
.	.	[8B [8d# [8g#
.	16%3GG#	8BL] 8d#] 8g#]
.	.	8a# 8dd# 8ff#
.	16%3CC#	.
.	.	8BJ 8d# 8g#
=50	=50	=50
2.r	16%3B	4d# 4f# 4a#
.	16%3D#	.
.	.	[8B [8d# [8g#
.	16%3GG#	8BL] 8d#] 8g#]
.	.	8a# 8dd# 8ff#
.	16%3CC#	.
.	.	8BJ 8d# 8g#
=51	=51	=51
2.r	16%3B	4d# 4f# 4a#
.	16%3D#	.
.	.	8B 8d# 8g#
.	16%3GG#	4d# 4f# 4a#
.	16%3CC#	.
.	.	8B 8d# 8g#
=52	=52	=52
2.r	16%3B	8d#L 8f# 8a#
.	.	8B 8d# 8g#
.	16%3D#	.
.	.	8d#J 8f# 8a#
.	16%3GG#	8BL 8d# 8g#
.	.	8d# 8f# 8a#
.	16%3CC#	.
.	.	8BJ 8d# 8g#
=53	=53	=53
2.r	16%3B 16%3en	8r
.	.	4b 4een 4gg#
.	16%3En	.
.	16%3GG# 16%3G#	4dd# 4gg# 4bb
.	16%3CC# 16%3C#	.
.	.	8g# 8b 8dd#
=54	=54	=54
2.r	16%3B 16%3en	8g# 8b 8een
.	.	[4b [4dd# [4gg#
.	16%3En	.
.	16%3GG# 16%3G#	8bL] 8dd#] 8gg#]
.	.	8g# 8b 8dd#
.	16%3CC# 16%3C#	.
.	.	8enJ 8g# 8cc#
=55	=55	=55
2.r	16%3B 16%3en	4g# 4b 4dd#
.	16%3En	.
.	.	[8en [8g# [8cc#
.	16%3GG# 16%3G#	8eL] 8g#] 8cc#]
.	.	8dd# 8gg# 8bb
.	16%3CC# 16%3C#	.
.	.	8eJ 8g# 8cc#
=56	=56	=56
2.r	16%3B 16%3en	4g# 4b 4dd#
.	16%3En	.
.	.	[8en [8g# [8cc#
.	16%3GG# 16%3G#	8eL] 8g#] 8cc#]
.	.	8dd# 8gg# 8bb
.	16%3CC# 16%3C#	.
.	.	8eJ 8g# 8cc#
=57	=57	=57
2.r	16%3B 16%3en	4g# 4b 4dd#
.	16%3En	.
.	.	8en 8g# 8cc#
.	16%3GG# 16%3G#	4g# 4b 4dd#
.	16%3CC# 16%3C#	.
.	.	8e 8g# 8cc#
=58	=58	=58
2.r	16%3B 16%3en	8g#L 8b 8dd#
.	.	8en 8g# 8cc#
.	16%3En	.
.	.	8g#J 8b 8dd#
.	16%3GG# 16%3G#	8eL 8g# 8cc#
.	.	8g# 8b 8dd#
.	16%3CC# 16%3C#	.
.	.	8eJ 8g# 8cc#
=59	=59	=59
2.r	4En 4An 4en	8r
.	.	8cc#L 8een 8aan
.	8CC# 8C#	[8eeJ [8gg# [8ccc#
.	4AAn 4A	8eeL] 8gg#] 8ccc#]
.	.	8cc# 8ee 8gg#
.	8r	8anJ 8cc# 8ff#
=60	=60	=60
2.r	4En 4An 4en	8gg#L 8ccc# 8eeen
.	.	8an 8cc# 8ff#
.	8CC# 8C#	8gg#J 8ccc# 8eee
.	4EEn 4E	8aL 8cc# 8ff#
.	.	8gg# 8ccc# 8eee
.	8r	8aJ 8cc# 8ff#
*	*clefG2	*
=61	=61	=61
2.r	8ddnL	8r
.	8b-X	8ggnL 8bb-X 8eee-X
.	8e-XJ	8bb-J 8dddn 8fffn
.	8GnL	8r
.	8e-	8ggL 8bb- 8ddd
.	8b-J	8ee-XJ 8gg 8cccn
*	*clefF4	*
=62	=62	=62
2.r	8dnL	8r
.	8B-X	8gnL 8b-X 8ee-X
.	8E-XJ	8b-J 8ddn 8ffn
.	8GGnL	8r
.	8E-	8gL 8b- 8dd
.	8B-J	8e-XJ 8g 8ccn
=63	=63	=63
2.r	8dnL	8r
.	8Gn	8bnL 8ddn 8ggn
.	8BBnJ	[8ddJ [8ff#X [8bb
.	8GL	8ddL] 8ff#] 8bb]
.	8dJ	8b 8dd 8ff#
.	8r	8gnJ 8b 8een
=64	=64	=64
2.r	2.r	8ff#L 8bb 8dddn
.	.	8gn 8b 8een
.	.	8ff#J 8bb 8ddd
.	.	8gL 8b 8ee
.	.	8ff# 8bb 8ddd
.	.	8gJ 8b 8ee
=65	=65	=65
2.r	8dnL	8r
.	8Gn	8bL 8ddn 8ggn
.	8BBJ	8ddJ 8ff# 8bb
.	8E#XL	8r
.	8c#	8cc#L 8ee#X 8aan
.	8g#XJ	8ee#J 8gg#X 8ccc#
=66	=66	=66
2.r	8dnL	8r
.	8Gn	8bL 8ddn 8ggn
.	8BBJ	8ddJ 8ff# 8bb
.	8E#L	8r
.	8c#	8cc#L 8ee# 8aan
.	8g#XJ	8ee#J 8gg#X 8ccc#
=67	=67	=67
2.r	8E#L	8r
.	8c#	8cc#L 8ee# 8aan
.	8g#J	8ee#J 8gg# 8ccc#
.	8E#L	8r
.	8c#	8cc#L 8ee# 8aa
.	8g#J	8ee#J 8gg# 8ccc#
=68	=68	=68
2.r	16%3d#	8r
.	.	4f# 4b 4dd#
.	16%3G#	.
.	16%3C#	4a#X 4dd# 4ff#
.	16%3FFF# 16%3FF#	.
.	.	8d# 8f# 8a#
=69	=69	=69
2.r	16%3r	8d# 8f# 8b
.	.	[4f# [4a# [4dd#
.	16%3G#	.
.	16%3C#	8f#L] 8a#] 8dd#]
.	.	8d# 8f# 8a#
.	16%3FFF# 16%3FF#	.
.	.	8BJ 8d# 8g#
=70	=70	=70
2.r	16%3r	4d# 4f# 4a#
.	16%3G#	.
.	.	[8B [8d# [8g#
.	16%3C#	8BL] 8d#] 8g#]
.	.	8a# 8dd# 8ff#
.	16%3FFF# 16%3FF#	.
.	.	8BJ 8d# 8g#
=71	=71	=71
2.r	16%3r	4d# 4f# 4a#
.	16%3G#	.
.	.	[8B [8d# [8g#
.	16%3C#	8BL] 8d#] 8g#]
.	.	8a# 8dd# 8ff#
.	16%3FFF# 16%3FF#	.
.	.	8BJ 8d# 8g#
=72	=72	=72
2.r	16%3r	4d# 4f# 4a#
.	16%3G#	.
.	.	8B 8d# 8g#
.	16%3C#	4d# 4f# 4a#
.	16%3FFF# 16%3FF#	.
.	.	8B 8d# 8g#
=73	=73	=73
2.r	16%3r	8d#L 8f# 8a#
.	.	8B 8d# 8g#
.	16%3G#	.
.	.	8d#J 8f# 8a#
.	16%3C#	8BL 8d# 8g#
.	.	8d# 8f# 8a#
.	16%3FFF# 16%3FF#	.
.	.	8BJ 8d# 8g#
=74	=74	=74
2.r	16%3B 16%3en	8r
.	.	4b 4een 4gg#
.	16%3En	.
.	16%3CC# 16%3C#	4dd# 4gg# 4bb
.	16%3FFF# 16%3FF#	.
.	.	8g# 8b 8dd#
=75	=75	=75
2.r	16%3B 16%3en	8g# 8b 8een
.	.	[4b [4dd# [4gg#
.	16%3En	.
.	16%3CC# 16%3C#	8bL] 8dd#] 8gg#]
.	.	8g# 8b 8dd#
.	16%3FFF# 16%3FF#	.
.	.	8enJ 8g# 8cc#
=76	=76	=76
2.r	16%3B 16%3en	4g# 4b 4dd#
.	16%3En	.
.	.	[8en [8g# [8cc#
.	16%3CC# 16%3C#	8eL] 8g#] 8cc#]
.	.	8dd# 8gg# 8bb
.	16%3FFF# 16%3FF#	.
.	.	8eJ 8g# 8cc#
=77	=77	=77
2.r	16%3B 16%3en	4g# 4b 4dd#
.	16%3En	.
.	.	[8en [8g# [8cc#
.	16%3CC# 16%3C#	8eL] 8g#] 8cc#]
.	.	8dd# 8gg# 8bb
.	16%3FFF# 16%3FF#	.
.	.	8eJ 8g# 8cc#
=78	=78	=78
2.r	16%3B 16%3en	4g# 4b 4dd#
.	16%3En	.
.	.	8en 8g# 8cc#
.	16%3CC# 16%3C#	4g# 4b 4dd#
.	16%3FFF# 16%3FF#	.
.	.	8e 8g# 8cc#
=79	=79	=79
2.r	16%3B 16%3en	8g#L 8b 8dd#
.	.	8en 8g# 8cc#
.	16%3En	.
.	.	8g#J 8b 8dd#
.	16%3CC# 16%3C#	8eL 8g# 8cc#
.	.	8g# 8b 8dd#
.	16%3FFF# 16%3FF#	.
.	.	8eJ 8g# 8cc#
=80	=80	=80
2.r	4En 4An 4c# 4en	8r
.	.	8cc#L 8een 8aan
.	8FFF# 8FF#	[8eeJ [8gg# [8ccc#
.	4CC# 4C#	8eeL] 8gg#] 8ccc#]
.	.	8cc# 8ee 8gg#
.	8r	8anJ 8cc# 8ff#
=81	=81	=81
2.r	4En 4An 4c# 4en	8gg#L 8ccc# 8eeen
.	.	8an 8cc# 8ff#
.	8FFF# 8FF#	8gg#J 8ccc# 8eee
.	4CC# 4C#	8aL 8cc# 8ff#
.	.	8gg# 8ccc# 8eee
.	8r	8aJ 8cc# 8ff#
=82	=82	=82
2.r	4An 4c# 4en 4g#	8r
.	.	8cc#L 8een 8aan
.	8BBB 8BB	[8eeJ [8gg# [8ccc#
.	4FF# 4F#	8eeL] 8gg#] 8ccc#]
.	.	8cc# 8ee 8gg#
.	8r	8anJ 8cc# 8ff#
=83	=83	=83
2.r	16%3An 16%3c# 16%3en 16%3g#	8gg#L 8ccc# 8eeen
.	.	8an 8cc# 8ff#
.	16%3BB	.
.	.	8gg#J 8ccc# 8eee
.	16%3A 16%3c# 16%3d# 16%3f#	8aL 8cc# 8ff#
.	.	8gg# 8ccc# 8ddd#
.	16%3BB	.
.	.	8aJ 8cc# 8ff#
=84	=84	=84
2.r	4F# 4B 4d# 4f#	8r
.	.	8dd#L 8ff# 8bb
.	8GGG# 8GG#	[8ff#J [8aa#X [8ddd#
.	4DD# 4D#	8ff#L] 8aa#] 8ddd#]
.	.	8dd# 8ff# 8aa#
.	8r	8bJ 8dd# 8gg#
=85	=85	=85
2.r	4F# 4B 4d# 4f#	8aa#L 8ddd# 8fff#
.	.	8b 8dd# 8gg#
.	8GGG# 8GG#	8aa#J 8ddd# 8fff#
.	4DD# 4D#	8bL 8dd# 8gg#
.	.	8aa# 8ddd# 8fff#
.	8r	8bJ 8dd# 8gg#
=86	=86	=86
2.r	4B 4d# 4f# 4a#	8r
.	.	8dd#L 8ff# 8bb
.	8CC# 8C#	[8ff#J [8aa# [8ddd#
.	4GG# 4G#	8ff#L] 8aa#] 8ddd#]
.	.	8dd# 8ff# 8aa#
.	8r	8bJ 8dd# 8gg#
=87	=87	=87
2.r	16%3B 16%3d# 16%3f# 16%3a#	8aa#L 8ddd# 8fff#
.	.	8b 8dd# 8gg#
.	16%3C#	.
.	.	8aa#J 8ddd# 8fff#
.	8BL 8d# 8e# 8g#	8bL 8dd# 8gg#
.	8C#J	8aa# 8ddd# 8eee#
.	16r	16bJk 16dd# 16gg#
.	16AAAn 16AAn	16r
=88	=88	=88
2.r	8EEnL 8En	8r
.	8GnJ 8dn 8gn	8ggnL 8bb 8eeen
.	8r	8bbJ 8dddn 8fff#
.	4r	8ddnL 8gg 8bb
.	.	8ff# 8bb 8ddd
.	8r	8bJ 8dd 8gg
=89	=89	=89
2.r	4r	8ddnL 8ff# 8bb
.	.	8gn 8b 8een
.	8r	8bJ 8dd 8ff#
.	4r	8dnL 8g 8b
.	.	8f#J 8b 8dd
.	8AAAn 8AAn	8r
=90	=90	=90
2.r	8EEnL 8En	8r
.	8GnJ 8dn 8gn	8ddnL 8ggn 8bb
.	8r	8ff#J 8bb 8dddn
.	4r	8bL 8dd 8gg
.	.	8dd 8ff# 8bb
.	8r	8gnJ 8b 8een
=91	=91	=91
2.r	4rD	8bL 8ddn 8ff#
.	.	8dn 8gn 8b
.	8r	8f#J 8b 8dd
.	4r	8BL 8d 8g
.	.	8dJ 8f# 8b
.	8BB 8B	8r
=92	=92	=92
2.r	8AAnL 8An	8r
.	8GGn 8Gn	8BL 8en
.	16r	8dnJ 8f#
.	16EEnJk 16En	.
.	4AAAn 4AA	8dL 8f# 8b
.	.	8BJ 8d 8f#
.	8GG 8G	8r
=93	=93	=93
2.r	8FFnL 8Fn	8r
.	8EE-X 8E-X	8AnL 8fn
.	16r	8cnJ 8e-X 8gn
.	16CCnJk 16Cn	.
.	4FFFn 4FF	8e-L 8g 8ccn
.	.	8cJ 8e- 8g
.	8FFF#X 8FF#X	8r
=94	=94	=94
2.r	4.DDn 4.Dn	8r
.	.	8F#XL 8An 8c#X
.	.	8F#J 8A 8c#
.	4r	8F#L 8A 8c#
.	.	8A 8c# 8f#
.	8r	8AJ 8c# 8f#
=95	=95	=95
2.r	2.r	8AnL 8c# 8f#
.	.	8c# 8f# 8an
.	.	8c#J 8f# 8a
.	.	8c#L 8f# 8a
.	.	8f# 8a 8cc#
.	.	8f#J 8a 8cc#
=96	=96	=96
2.r	16c#LL	8r
.	16F#	.
.	16GG#	8cc#L
.	16F#	.
.	16GG#	8e#J
.	16GG#JJ	.
.	16GGG#XLL	[4.G##X
.	16GG#	.
.	16GG#	.
.	16F#	.
.	16c#	.
.	16F#JJ	.
=97	=97	=97
2.r	16B#XLL	4.G##]
.	16F#	.
.	16GG#	.
.	16F#	.
.	16GG#	.
.	16GG#JJ	.
.	16GGG#LL	4.A#
.	16GG#	.
.	16GG#	.
.	16F#	.
.	16B#	.
.	16F#JJ	.
=98	=98	=98
2.r	8DDnL 8Cn	8A-XL 8cn 8f#
.	8DD 8C	8A- 8c 8e#
.	[8DDJ [8C	[8A-J [8c [8f#
.	8DDL] 8C]	8A-L] 8c] 8f#]
.	8DD 8C	8A- 8c 8e#
.	[8DDJ [8C	[8A-J [8c [8f#
=99	=99	=99
2.r	8DDL] 8C]	8A-L] 8c] 8f#]
.	8DDn 8Cn	8A-X 8cn 8e#
.	[8DDJ [8C	[8A-J [8c [8f#
.	8DDL] 8C]	8A-L] 8c] 8f#]
.	8DD 8C	8A- 8c 8e#
.	8DDJ 8C	8A-J 8c 8f#
=100	=100	=100
2.r	16B#XLL	8r
.	16F#	.
.	16GG#	8f#L
.	16F#	.
.	16GG#	8A#XJ
.	16GG#JJ	.
*	*	*clefF4
.	16GGG#LL	[4.C##X
.	16GG#	.
.	16GG#	.
.	16F#	.
.	16B#	.
.	16F#JJ	.
=101	=101	=101
2.r	16B#XLL	4.C##]
.	16F#	.
.	16GG#	.
.	16F#	.
.	16GG#	.
.	16GG#JJ	.
.	16GGG#LL	4.D#
.	16GG#	.
.	16GG#	.
.	16F#	.
.	16B#	.
.	16F#JJ	.
=102	=102	=102
*	*	*clefG2
2.r	8EEnL 8Dn	8G#XL 8B 8f#
.	8EEn 8D	8G# 8B 8e#X
.	[8EEJ [8D	[8G#J [8B [8f#
.	8EEL] 8D]	8G#L] 8B] 8f#]
.	8EE 8D	8G# 8B 8e#
.	[8EEJ [8D	[8G#J [8B [8f#
=103	=103	=103
2.r	8EEL] 8D]	8G#L] 8B] 8f#]
.	8EEn 8Dn	8G# 8B#X 8en
.	8EEJ 8Dn	8G#J 8B# 8d#X
*	*	*clefF4
.	8CCnL 8BB-X	8EnL 8G# 8dn
.	8CC 8BB-	8E 8G# 8d-X
.	8CCJ 8BB-	8EJ 8G# 8cn
=104	=104	=104
2.r	8AAAn 8GGn	8C#X 8Gn 8Bn
.	16c#LL	8gnL
.	16Gn	.
.	16AAn	8BJ
.	16AAJJ	.
.	16AAALL	[4.D#X
.	16AA	.
.	16AA	.
.	16G	.
.	16c#	.
.	16GJJ	.
=105	=105	=105
2.r	16c#LL	4.D#]
.	16Gn	.
.	16AAn	.
.	16G	.
.	16AA	.
.	16AAJJ	.
.	16AAAnLL	4.En
.	16AA	.
.	16AA	.
.	16G	.
.	16c#	.
.	16GJJ	.
*	*	*clefG2
=106||	=106||	=106||
*k[b-e-]	*k[b-e-]	*k[b-e-]
2.r	8EE-L 8D-X	8GL 8Bn 8f
.	8EE-X 8D-	8G 8B 8en
.	[8EE-J [8D-	[8GJ [8B [8f
.	8EE-L] 8D-]	8GL] 8B] 8f]
.	8EE- 8D-	8G 8B 8e
.	[8EE-J [8D-	[8GJ [8B [8f
=107	=107	=107
2.r	8EE-L] 8D-]	8GL] 8B] 8f]
.	8EE-X 8D-X	8G 8Bn 8en
.	8EE-J 8D-	8GJ 8B 8f
.	8AAL 8G	8e-XL 8g 8cc#X
.	8AA 8G	8e- 8g 8b#X
.	8AAJ 8G	8e-J 8g 8cc#
=108	=108	=108
2.r	8EE-L 8D-X	8GL 8Bn 8f
.	8EE-X 8D-	8G 8B 8en
.	[8EE-J [8D-	[8GJ [8B [8f
.	8EE-L] 8D-]	8GL] 8B] 8f]
.	8EE- 8D-	8G 8B 8e
.	[8EE-J [8D-	[8GJ [8B [8f
=109	=109	=109
2.r	8EE-L] 8D-]	8GL] 8B] 8f]
.	8EE-X 8D-X	8G 8Bn 8en
.	8EE-J 8D-	8GJ 8B 8f
.	8AAL 8G	8e-XL 8g 8cc#X
.	8AA 8G	8e- 8g 8b#X
.	8AAJ 8G	8e-J 8g 8cc#
=110	=110	=110
2.r	8FFL 8E-	8AL 8c#X 8g
.	8FFn 8E-	8A 8c# 8f#X
.	[8FFJ [8E-	[8AJ [8c# [8g
.	8FFL] 8E-]	8AL] 8c#] 8g]
.	8FF 8E-	8A 8c# 8f#
.	[8FFJ [8E-	[8AJ [8c# [8g
=111	=111	=111
2.r	8FFL] 8E-]	8AL] 8c#] 8g]
.	8FFn 8E-	8A 8c#X 8f#X
.	8FFJ 8E-	8AJ 8c# 8g
.	8BBnL 8A	8fnL 8a 8dd#X
.	8BB 8A	8f 8a 8cc##X
.	8BBJ 8A	8fJ 8a 8dd#
=112	=112	=112
*	*^	*
2.r	8E-L 8B-X	[2.GG	8dnL 8g 8b-X
.	8E- 8B-	.	8d 8g 8a
.	[8E-J [8B-	.	[8dJ [8g [8b-
.	8E-L] 8B-]	.	8dL] 8g] 8b-]
.	8E- 8B-	.	8d 8g 8a
.	[8E-J [8B-	.	[8dJ [8g [8b-
=113	=113	=113	=113
2.r	8E-L] 8B-]	2.GG]	8dL] 8g] 8b-]
.	8E- 8B-	.	8d 8g 8a
.	8E-J 8B-	.	8dJ 8g 8b-
.	8E-L 8B- 8e-	.	8b-L 8dd 8gg
.	8E- 8B- 8e-	.	8b- 8dd 8ff#X
.	8E-J 8B- 8e-	.	8b-J 8dd 8gg
*	*v	*v	*
=114	=114	=114
2.r	8GG 8E- 8B-	8r
.	16B-LL	8gL 8b- 8dd
.	16E-	.
.	16GG	8e-J 8g 8cc
.	16GGJJ	.
.	16GGGLL	[4.dd [4.gg [4.bb-
.	16GG	.
.	16GG	.
.	16E-	.
.	16B-	.
.	16E-JJ	.
=115	=115	=115
2.r	16e-LL	4.dd] 4.gg] 4.bb-]
.	16B-	.
.	16E-	.
.	16B-	.
.	16E-	.
.	16GGJJ	.
.	16GGGLL	4.dd 4.gg 4.bb-
.	16GG	.
.	16E-	.
.	16B-	.
.	16G 16e-	.
.	16B-JJ	.
=116	=116	=116
.	[8qCC/ [8qC	.
*	*^	*
2.r	4.CC] 4.C] 4.G 4.B- 4.d 4.en	4rEE	4.b- [4.dd [4.gg [4.bb-
.	.	8rEE	.
.	8G	16GLL	4dd] 4gg] 4bb-]
.	.	16d	.
.	8rc	16b-	.
.	.	16eJJ	.
.	8rc	8rEE	8g [8dd [8een [8gg
=117	=117	=117	=117
2.r	8d	16dLL	4dd] 4ee] 4gg]
.	.	16en	.
.	8rc	16b-	.
.	.	16gJJ	.
.	8rc	8rEE	[8dd [8een
.	8C	16CLL	4dd] 4ee]
.	.	16G	.
.	8rc	16e	.
.	.	16B-JJ	.
.	8rc	8rEE	8d [8g [8b- [8dd
=118	=118	=118	=118
*	*	*	*^
2.r	8G	16GLL	4g] 4b-] 4dd]	4rc
.	.	16B-	.	.
.	8rc	16en	.	.
.	.	16dJJ	.	.
.	8rc	8rEE	[8g [8b-	8rc
.	8FF	16FFLL	4g] 4b-]	4rc
.	.	16C	.	.
.	8rc	16B-	.	.
.	.	16GJJ	.	.
.	8rc	8rEE	16gLL	8d 8en
.	.	.	16f#XJJ	.
=119	=119	=119	=119	=119
2.r	8C	16CLL	4raa	4rc
.	.	16G	.	.
.	8rc	16d	.	.
.	.	16B-JJ	.	.
.	8rc	8rEE	16gLL	8en
.	.	.	16f#XJJ	.
.	8FFn	16FFLL	4raa	4rc
.	.	16C	.	.
.	8rc	16B-	.	.
.	.	16GJJ	.	.
.	8rc	8rEE	16gLL	8d 8e
.	.	.	16f#JJ	.
*	*v	*v	*	*
=120	=120	=120	=120
*	*	*	*^
2.r	[2.FF [2.E-X	4raa	8gL	4.A\ 4.e-X
.	.	.	8f#X	.
.	.	8raa	8gJ	.
.	.	[4.dd	8gL	4.A\ 4.e-
.	.	.	8f#	.
.	.	.	[8gJ	.
=121	=121	=121	=121	=121
2.r	4.FF] 4.E-]	4dd]	8gL]	4.A\
.	.	.	16g-XL	.
.	.	.	16f	.
.	.	8cc	16en	.
.	.	.	16e-XJJ	.
.	4.FFn 4.E-	8f#XL	16dLL	8A\L
.	.	.	16d-X	.
.	.	8gn	16c	8A-X\
.	.	.	16c-X	.
.	.	8e-J 8g 8ddn	16B-	8G\J
.	.	.	16AnJJ	.
*	*	*v	*v	*v
=122	=122	=122
.	[8qCC-X/ [8qFF [8qE-	.
*	*	*^
2.r	8CC-] 8FF] 8E-] 8A 8e- 8a	[2.fn [2.ee- [2.ffn	8rc
.	16r	.	[4d-X
.	16a	.	.
.	16e-LL	.	.
.	16AJJ	.	.
.	16E-LL	.	4d-]
.	16FFJJ	.	.
.	16CC-X	.	.
.	16r	.	.
.	8r	.	8dn
=123	=123	=123	=123
2.r	8r	2.f] 2.ee-] 2.ff]	8rc
.	16r	.	[4d-X
.	16a	.	.
.	16e-LL	.	.
.	16AJJ	.	.
.	16E-LL	.	4d-]
.	16FFJJ	.	.
.	16CC-X	.	.
.	16r	.	.
.	8r	.	8dn
=124	=124	=124	=124
*	*	*	*^
2.r	[2.FF [2.E-	4raa	8c#XL 8g	4.A\
.	.	.	8d 8f#X	.
.	.	8raa	8e-J 8g	.
.	.	[4.dd	8gL	4.A\ 4.e-
.	.	.	8f#	.
.	.	.	[8gJ	.
=125	=125	=125	=125	=125
2.r	4.FF] 4.E-]	4dd]	8gL]	4.A\
.	.	.	16g-XL	.
.	.	.	16f	.
.	.	8cc	16en	.
.	.	.	16e-XJJ	.
.	4.FFn 4.E-	8f#XL	16dLL	8A\L
.	.	.	16d-X	.
.	.	8gn	16c	8A-X\
.	.	.	16c-X	.
.	.	8e-J 8g 8ddn	16B-	8G\J
.	.	.	16AnJJ	.
*	*	*v	*v	*v
=126	=126	=126
.	[8qCC-X/ [8qFF [8qE-	.
*	*	*^
2.r	8CC-] 8FF] 8E-] 8A 8e- 8a	[2.g [2.ee- [2.gg	8rc
.	16r	.	[4d-X
.	16a	.	.
.	16e-LL	.	.
.	16AJJ	.	.
.	16E-LL	.	4d-]
.	16FFJJ	.	.
.	16CC-X	.	.
.	16r	.	.
.	8r	.	8dn
=127	=127	=127	=127
2.r	8r	2.g] 2.ee-] 2.gg]	8rc
.	16r	.	[4d-X
.	16a	.	.
.	16e-LL	.	.
.	16AJJ	.	.
.	16E-LL	.	4d-]
.	16FFJJ	.	.
.	16CC-X	.	.
.	16r	.	.
.	8r	.	8dn
=128	=128	=128	=128
*	*	*	*^
2.r	[2.BBB- [2.BB-	4raa	8ccnL	4.A-X\ 4.d
.	.	.	8bn	.
.	.	8raa	8ccJ	.
.	.	[4.gg	8ccL	4.d\ 4.a-X
.	.	.	8b	.
.	.	.	[8ccJ	.
=129	=129	=129	=129	=129
2.r	4.BBB-] 4.BB-]	4gg]	8ccL]	4.d\
.	.	.	16cc-XL	.
.	.	.	16b-	.
.	.	8ff	16an	.
.	.	.	16a-XJJ	.
.	4.BB-X 4.A-X	8bnL	16gLL	8d\L
.	.	.	16g-X	.
.	.	8ccn	16f	8d-X\
.	.	.	16f-X	.
.	.	8a-J 8cc 8ggn	16e-	8c\J
.	.	.	16dnJJ	.
*	*	*	*v	*v
=130	=130	=130	=130
2.r	8EE- 8BB- 8A-X 8d 8a-X	16cccLL	[4.cc
.	.	[16ff#XJJ	.
.	16r	4ff#_	.
.	16a-	.	.
.	16dLL	.	.
.	16A-JJ	.	.
.	16BB-LL	4.ff#_	8.cc]
.	16EE-JJ	.	.
.	8r	.	.
.	.	.	16cc-X
.	8r	.	16b-LL
.	.	.	16bnJJ
=131	=131	=131	=131
2.r	16ccLL	16ff#LL]	[4.cc
.	16a-X	[16ff#XJJ	.
.	16d	4ff#_	.
.	16A-X	.	.
.	16BB-	.	.
.	16EE-JJ	.	.
.	4r	4.ff#]	8ccL]
.	.	.	16cc-XL
.	.	.	16b-
.	8r	.	16an
.	.	.	16a-XJJ
=132	=132	=132	=132
2.r	16gLL	16ggLL	[4.g
.	16d#X	[16cc#XJJ	.
.	16An	4cc#_	.
.	16BBnJJ	.	.
.	8BBBn	.	.
.	4r	4.cc#]	8gL]
.	.	.	16f#XL
.	.	.	16fn
.	8r	.	16en
.	.	.	16e-XJJ
=133	=133	=133	=133
2.r	16dLL	16ddLL	[4.d
.	16A	[16f#XJJ	.
.	16E-	4f#_	.
.	16FFn	.	.
.	16FFFn	.	.
.	16FFJJ	.	.
.	16E-LL	4f#]	8d]
.	16AJJ	.	.
.	4d	.	4rc
.	.	8g	.
=134	=134	=134	=134
*	*	*	*^
2.r	[2.BBB- [2.FF [2.E-	4raa	8gL	4.A\ 4.e-
.	.	.	8f#X	.
.	.	8raa	8gJ	.
.	.	[4.dd	8gL	4.A\ 4.e-
.	.	.	8f#	.
.	.	.	[8gJ	.
=135	=135	=135	=135	=135
2.r	4.BBB-] 4.FF] 4.E-]	4dd]	8gL]	4.A\
.	.	.	16g-XL	.
.	.	.	16f	.
.	.	8cc	16en	.
.	.	.	16e-XJJ	.
.	4.FFn 4.E-	8f#XL	16dLL	8A\L
.	.	.	16d-X	.
.	.	8gn	16c	8A-X\
.	.	.	16c-X	.
.	.	8e-J 8g 8ddn	16B-	8G\J
.	.	.	16AnJJ	.
*	*	*v	*v	*v
=136	=136	=136
.	[8qBBB-/ [8qFF [8qE-	.
*	*	*^
2.r	8BBB-] 8FF] 8E-] 8A 8e- 8a	[2.g [2.ee- [2.gg	8rc
.	16r	.	[4d-X
.	16a	.	.
.	16e-LL	.	.
.	16AJJ	.	.
.	16E-LL	.	4d-]
.	16FFJJ	.	.
.	16BBB-	.	.
.	16r	.	.
.	8r	.	8dn
=137	=137	=137	=137
2.r	8r	2.g] 2.ee-] 2.gg]	8rc
.	16r	.	[4d-X
.	16a	.	.
.	16e-LL	.	.
.	16AJJ	.	.
.	16E-LL	.	4d-]
.	16FFJJ	.	.
.	16BBB-	.	.
.	16r	.	.
.	8r	.	8dn
=138	=138	=138	=138
*	*	*	*^
2.r	[2.BBB- [2.FF [2.E-	4raa	8gL	4.A\ 4.e-
.	.	.	8f#X	.
.	.	8raa	8gJ	.
.	.	[4.gg	8ddL	4.e-\ 4.a
.	.	.	8cc#X	.
.	.	.	[8ddJ	.
=139	=139	=139	=139	=139
2.r	4.BBB-] 4.FF] 4.E-]	4gg]	8ddL]	4.e-\
.	.	.	16dd-XL	.
.	.	.	16cc	.
.	.	8ff	16bn	.
.	.	.	16b-XJJ	.
.	4.BBB-X 4.FF 4.E-	8bnL	16aLL	4.A\ 4.e-
.	.	.	16a-X	.
.	.	8cc	16g	.
.	.	.	16g-X	.
.	.	8ggnJ	24f	.
.	.	.	24en	.
.	.	.	24e-XJJ	.
*	*	*v	*v	*v
*	*	*clefF4
=140||	=140||	=140||
*M2/4	*M2/4	*M2/4
2r	16GGLL	8E-L 8B-X 8d
.	16BBB-JJ	.
.	8r	16r
.	.	16c#XJk
.	16BBB-LL	8E-L 8B- 8d
.	16BBBB-JJ	.
.	8r	16r
.	.	16c#Jk
=141	=141	=141
2r	16BBB-LL	8E-L 8B- 8d
.	16GGJJ	.
.	8r	16r
.	.	16dJk
.	4C-X	4G 4B- 4e-
=142	=142	=142
2r	2r	2r
=143	=143	=143
*M6/8	*M6/8	*M6/8
2.r	4BBB-	8r
.	.	8BB-L 8D-X 8G-X
.	8GG-X	8D-J 8F 8B-
.	8BBB-L	8r
.	8BBB-	8BB-L 8D- 8F
.	8BBBB-J	8GG-XJ 8BB- 8E-
=144	=144	=144
2.r	8BBB-L	8r
.	8D-X	8FL 8A-X 8d-X
.	8EE-J	8A-J 8c 8f
.	8BBB-L	8r
.	8BBB-	8FL 8A- 8c
.	8BBBB-J	8D-XJ 8F 8B-
*	*	*clefG2
=145	=145	=145
2.r	8BBB-L	8r
.	8C-X	8A-XL 8c-X 8f-X
.	8FF-XJ	8c-J 8e- 8a-X
.	8BBB-L	8r
.	8BBB-	8A-L 8c- 8e-
.	8BBBB-J	8F-XJ 8A- 8d-X
=146	=146	=146
2.r	16BBBB-LL 16BBB-	8r
.	16FFFnJJ 16FFn	.
.	8r	8dnL 8fn 8an
.	8r	8B-J 8d 8g
.	4.D 4.B- 4.d	4.a 4.dd 4.ff
=147	=147	=147
2.r	8GG-X 8D-X 8G-X	8r
.	8r	8B-L 8d-X 8g-X
.	8BBBB- 8BBB-	8d-J 8f 8b-
.	4GG- 4G-	8r
.	.	8B-L 8d- 8f
.	8r	8G-XJ 8B- 8e-
=148	=148	=148
2.r	8EE- 8D-X 8A-X	8r
.	8r	8fL 8a-X 8dd-X
.	8BBBB- 8BBB-	8a-J 8cc 8ff
.	4EE- 4E-	8r
.	.	8fL 8a- 8cc
.	8r	8d-XJ 8f 8b-
=149	=149	=149
2.r	8FF-X 8C-X 8A-X	8r
.	8r	8ff-XL 8aa-X 8ddd-X
.	8BBBB- 8BBB-	8aa-J 8ccc-X 8eee-
.	4FF- 4F-X	8cc-XL 8ff- 8aa-
.	.	8ee- 8aa- 8ccc-
.	8r	8a-XJ 8cc- 8ff-
=150	=150	=150
2.r	2.r	8cc-XL 8ee- 8aa-X
.	.	8f-X 8a-X 8dd-X
.	.	8a-J 8cc- 8ee-
.	.	8c-XL 8f- 8a-
.	.	8e- 8a- 8cc-
.	.	8A-XJ 8c- 8f-
=151	=151	=151
2.r	16BBBB-LL 16BBB-	8Fn 8B- 8dn
.	16FFFnJJ 16FFn	.
.	8r	8dL 8fn 8an
.	8r	8B-J 8d 8g
.	4.D 4.B- 4.d	[4.a [4.dd [4.ff
=152	=152	=152
2.r	16BB-LL 16B-	4.a] 4.dd] 4.ff]
.	16DDJJ 16D	.
.	8r	.
.	8r	.
.	16FFFLL 16FF	4.a 4.dd 4.ff
.	16BBBB-JJ 16BBB-	.
.	8r	.
.	8r	.
=153	=153	=153
2.r	4.BBB- 4.FF-X 4.C-X	8r
.	.	8f-XL 8a-X 8dd-X
.	.	8a-J 8cc-X 8ee-
.	16AA-XLL 16A-X	8c-XL 8f- 8a-
.	16AA-JJ 16A-	.
.	8r	8e- 8a- 8cc-
.	8r	8A-XJ 8c- 8f-
=154	=154	=154
2.r	2.r	8c-XL 8e- 8a-X
*	*	*clefF4
.	.	8F-X 8A-X 8d-X
.	.	8A-J 8c-X 8e-
.	.	8C-XL 8F- 8A-
.	.	8E- 8A- 8c-
.	.	8AA-XJ 8C- 8F-
=155	=155	=155
2.r	16BBBB-LL 16BBB-	8FFn 8BB- 8Dn
.	16FFFnJJ 16FFn	.
*	*	*clefG2
.	8r	8dL 8f 8an
.	8r	8B-J 8d 8g
.	4.D 4.B- 4.d	[4.a [4.dd [4.ff
=156	=156	=156
2.r	16BB-LL 16B-	4.a] 4.dd] 4.ff]
.	16DDJJ 16D	.
.	8r	.
.	8r	.
.	16FFFLL 16FF	4.a 4.dd 4.ff
.	16BBBB-JJ 16BBB-	.
.	8r	.
.	8r	.
=157||	=157||	=157||
*k[f#c#g#d#]	*k[f#c#g#d#]	*k[f#c#g#d#]
*M2/4	*M2/4	*M2/4
2r	8EEE#X 8BBB 8FF#	8f# 8b 8dd# 8ff#
*	*	*clefF4
.	16EEE#LL	[8FF#
.	16BBBJJ	.
.	16EEE#LL	4FF#]
.	16BBB	.
.	16EEE#	.
.	16BBBJJ	.
=158	=158	=158
2r	16EEE#XLL	2FF#
.	16BBB	.
.	16EEE#	.
.	16BBBJJ	.
.	16EEE#LL	.
.	16BBB	.
.	16EEE#	.
.	16BBBJJ	.
=159	=159	=159
2r	16EEE#XLL	40r
.	.	40FF#LLL
.	.	40BB
.	16BBB	.
.	.	40C#
.	.	40D#JJ
.	16FF#	8E#XJ
.	16BBBJJ	.
.	16EEE#LL	4FF#
.	16BBB	.
.	16EEE#	.
.	16BBBJJ	.
=160	=160	=160
2r	16EEE#XLL	2FF#
.	16BBB	.
.	16EEE#	.
.	16BBBJJ	.
.	16EEE#LL	.
.	16BBB	.
.	16EEE#	.
.	16BBBJJ	.
=161	=161	=161
2r	16EEE#XLL	8r
.	16BBB	.
.	.	16qqFF#/LL
.	.	16qqBB/
.	.	16qqC#/
.	.	16qqD#/JJ
.	16EEE#	8E#X
.	16BBBJJ	.
.	8qBBB/	.
.	8FF#	8r
.	.	16qqBB/LL
.	.	16qqD#/
.	.	16qqF#/
.	.	16qqG#/JJ
.	8r	8A#X
=162	=162	=162
.	8qEE#X/	.
2r	8BB	8r
.	.	16qqF#/LL
.	.	16qqB/
.	.	16qqc#/
.	.	16qqd#/JJ
.	8r	8e#X
*	*	*clefG2
.	8qBB/	.
.	8F#	8r
.	.	16qqB/LL
.	.	16qqd#/
.	.	16qqf#/
.	.	16qqg#/JJ
.	8r	8a#X
=163	=163	=163
.	8qE#X/	.
2r	8B	8r
.	.	16qqf#/LL
.	.	16qqb/
.	.	16qqcc#/
.	.	16qqdd#/JJ
.	8r	8ee#X
.	8qB/	.
.	8f#	8r
.	.	16qqb/LL
.	.	16qqdd#/
.	.	16qqff#/
.	.	16qqgg#/JJ
.	8r	8aa#X
*	*clefG2	*
=164	=164	=164
.	8qe#X/	.
2r	8b	8r
.	.	16qqff#/LL
.	.	16qqbb/
.	.	16qqccc#/
.	.	16qqddd#/JJ
.	8r	8eee#X
.	8qb/	.
.	8ff#	8r
.	.	16qqbb/LL
.	.	16qqddd#/
.	.	16qqfff#/
.	.	16qqggg#/JJ
.	8r	8aaa#X
=165	=165	=165
2r	2r	2r
=166	=166	=166
*M5/8	*M5/8	*M5/8
*	*	*^
3...r	[4.f# [4.g# [4.b#X	4.raa	8rc
.	.	.	[4aa#X
.	4f#] 4g#] 4b#]	4raa	4aa#]
=167	=167	=167	=167
3...r	[4.B#X [4.f# [4.a#X	8raa	[4.ee#X
.	.	8eee#XL	.
.	.	[8ggg#J	.
.	4B#] 4f#] 4a#]	8ggg#L]	4ee#]
.	.	8eee#J	.
=168	=168	=168	=168
3...r	[4.f# [4.g# [4.b#X	4.raa	8rc
.	.	.	[4aa#X
.	4f#] 4g#] 4b#]	4raa	4aa#]
=169	=169	=169	=169
3...r	[4.B#X [4.f# [4.a#X	8raa	[4.ee#X
.	.	8eee#XL	.
.	.	[8ggg#J	.
.	4B#] 4f#] 4a#]	8ggg#L]	4ee#]
.	.	8eee#J	.
*	*	*v	*v
=170	=170	=170
*M4/8	*M4/8	*M4/8
*	*^	*
2r	2b#X	[2f# [2g#	8r
.	.	.	[8aa#X
.	.	.	4aa#]
*	*v	*v	*
=171	=171	=171
*M6/8	*M6/8	*M6/8
*	*^	*
2.r	2.ee#X	2.f#] 2.g#]	8r
.	.	.	[4ccc#
.	.	.	4.ccc#]
=172	=172	=172	=172
*	*	*	*^
2.r	8raa	8rc	8raa	8rc
.	[4een	[4f# [4g# [4b#X	4fff#	[4aa#X
.	4ee]	4.f#_ 4.g#_ 4.b#_	4ccc##X	4.aa#_
.	8dd#	.	8ddd#	.
=173	=173	=173	=173	=173
2.r	2.cc##X	2.f#] 2.g#] 2.b#]	8eee	2.aa#]
.	.	.	4aaa#X	.
.	.	.	4aaa#	.
.	.	.	8aaa#	.
*	*v	*v	*	*
=174	=174	=174	=174
*	*clefF4	*	*
*	*	*v	*v
*M5/8	*M5/8	*M5/8
*	*	*^
3...r	[4.F# [4.B#X [4.e	8raa	[4.a#X
.	.	8eeL	.
.	.	[8gg#J	.
.	4F#_ 4B#_ 4e_	8gg#L]	4a#_
.	.	[8eeJ	.
*	*	*v	*v
=175	=175	=175
*M3/8	*M3/8	*M3/8
*	*	*^
4.r	4.F#] 4.B#] 4.e]	4.ee]	4.a#]
*	*clefG2	*	*
*	*	*v	*v
=176	=176	=176
*M6/8	*M6/8	*M6/8
*	*^	*^
2.r	8rb	8rb	8raa	8rc
.	[4ee	[4f# [4g# [4b#X	4fff#	[4aa#X
.	4ee]	4.f#_ 4.g#_ 4.b#_	4ccc##X	4.aa#_
.	8dd#	.	8ddd#	.
=177	=177	=177	=177	=177
2.r	2.cc##X	2.f#] 2.g#] 2.b#]	8eee	2.aa#]
.	.	.	4aaa#X	.
.	.	.	4aaa#	.
.	.	.	8aaa#	.
*	*v	*v	*	*
*	*clefF4	*	*
*	*	*v	*v
=178	=178	=178
*M5/8	*M5/8	*M5/8
*	*	*^
3...r	[4.F# [4.B#X [4.e	8raa	[4.a#X
.	.	8eeL	.
.	.	[8gg#J	.
.	4F#] 4B#] 4e]	8gg#L]	4a#]
.	.	8eeJ	.
=179	=179	=179	=179
3...r	[4.BB#X [4.F# [4.A#X [4.e#X	8raa	[4.a#X
.	.	8ee#XL	.
.	.	[8gg#J	.
.	4BB#] 4F#] 4A#] 4e#]	8gg#L]	4a#]
.	.	8ee#J	.
=180	=180	=180	=180
3...r	[4.F# [4.B#X [4.en	8raa	[4.a#X
.	.	8eenL	.
.	.	[8gg#J	.
.	4F#] 4B#] 4e]	8gg#L]	4a#]
.	.	8eeJ	.
=181	=181	=181	=181
3...r	[4.B#X [4.d# [4.f#	8raa	[4.a#X
.	.	8dd#L	.
.	.	[8gg#J	.
.	4B#_ 4d#_ 4f#_	8gg#L]	4a#_
.	.	8dd#J	.
=182	=182	=182	=182
3...r	4.B#_ 4.d#_ 4.f#_	8raa	4.a#_
.	.	8dd#L	.
.	.	[8gg#J	.
.	4B#] 4d#] 4f#]	8gg#L]	4a#]
.	.	8dd#J	.
=183	=183	=183	=183
.	[8qGGG#/ [8qGG#	.	.
3...r	4.GGG#_ 4.GG#_ [4.F# [4.c# [4.d# [4.f#	8raa	[4.a#X
.	.	8dd#L	.
.	.	[8gg#J	.
.	4GGG#_ 4GG#_ 4F#_ 4c#_ 4d#_ 4f#_	8gg#L]	4a#_
.	.	8dd#J	.
=184	=184	=184	=184
3...r	4.GGG#] 4.GG#] 4.F#] 4.c#] 4.d#] 4.f#]	8raa	4.a#_
.	.	8dd#L	.
.	.	[8gg#J	.
.	4r	8gg#L]	4a#]
.	.	8dd#J	.
*	*	*v	*v
=185	=185	=185
*M6/8	*M6/8	*M6/8
2.r	8GG# 8F# 8c#	8r
.	8cc#L	4ee#X 4gg##X
.	8e#XJ	.
.	4.G##X	4gg## 4ccc#
.	.	8cc# 8ee#
=186	=186	=186
2.r	8A#X	8cc# 8ff#
.	8c#L	4f# 4a#X
.	8F#J	.
.	4.GG#	4e#X 4a# 4cc#
.	.	8A#X 8c# 8e#
=187	=187	=187
2.r	8EEn 8Dn	8An 8c# 8f#
.	8aL	4cc# 4ee#X
.	8c#J	.
.	4.E#X	4ee# 4aa
.	.	8a 8cc#
=188	=188	=188
2.r	8r	8f# 8a 8ddn
.	8F#L 8dn	[4a [4cc# [4ff#
.	8DnJ	.
.	4.EE	8aL] 8cc#] 8ff#]
.	.	8f# 8a 8cc#
.	.	8dnJ 8f# 8b
=189	=189	=189
2.r	8r	4f# 4a 4cc#
.	8AL	.
.	8DnJ	[8dn [8f# [8b
.	4.EE	8dL] 8f#] 8b]
.	.	8cc# 8ff# 8aa
.	.	8dJ 8f# 8b
=190	=190	=190
2.r	8r	4f# 4a 4cc#
.	8AL	.
.	8DnJ	[8dn [8f# [8b
.	4.EE	8dL] 8f#] 8b]
.	.	8f# 8a 8cc#
.	.	8dJ 8f# 8b
=191	=191	=191
2.r	4dn	8r
.	.	8ddnL
.	[8G#	8f#J
.	8G#]	[4.A#X
.	4Dn	.
=192	=192	=192
2.r	20%3EE	4.A#]
.	20%3EEE	.
.	20%3EE	.
.	.	4.B
.	20%3Dn	.
.	20%3G#	.
=193	=193	=193
2.r	4.EEE 4.EE	8F# 8A 8c# 8dn
.	.	4a 4ddn 4ff#
.	[4.EE [4.BB [4.F# [4.dn	4cc# 4ff# 4aa
.	.	8f# 8a 8cc#
=194	=194	=194
2.r	2.EE] 2.BB] 2.F#] 2.d]	8f# 8a 8ddn
.	.	[4a [4cc# [4ff#
.	.	8aL] 8cc#] 8ff#]
.	.	8f# 8a 8cc#
.	.	8dnJ 8f# 8b
=195	=195	=195
2.r	4dn	8r
.	.	8ddnL
.	[8G#	8f#J
.	8G#]	[4.A#X
.	4Dn	.
=196	=196	=196
2.r	20%3EE	4.A#]
.	20%3EEE	.
.	20%3EE	.
.	.	4.B
.	20%3Dn	.
.	20%3G#	.
*	*	*clefF4
=197	=197	=197
*	*^	*
*	*	*^	*
2.r	4rc	4rEE	[2.BBBB-X\ [2.BBB-X	8E 8A-X 8dn
.	.	.	.	8a-XL
.	8rc	8rEE	.	8cnJ
.	8rc	8rEE	.	[4.E
.	8A-XL	[4A-	.	.
.	[8dnJ	.	.	.
=198	=198	=198	=198	=198
2.r	2.d] 2.ccn	2.A-]	2.BBBB-\] 2.BBB-]	4.E]
.	.	.	.	4.Fn
*	*	*	*	*clefG2
=199	=199	=199	=199	=199
*	*	*	*	*^
2.r	4rc	2.dn	8d\L	2.raa	8b#XL
.	.	.	8E\	.	8bn
.	[8g#	.	8g#\J	.	[8b#XJ
.	4.g#]	.	4r	.	8b#L]
.	.	.	.	.	8bn
.	.	.	8r	.	8b#XJ
*	*v	*v	*v	*	*
*	*	*v	*v
=200	=200	=200
*M5/8	*M5/8	*M5/8
*	*^	*^
3...r	[4.g#	4.dn	[4.gg#	8b#XL
.	.	.	.	8bn
.	.	.	.	8b#X
.	4g#]	8c#L	4gg#]	8cc#
.	.	8cnJ	.	8ddnJ
*	*v	*v	*	*
*	*	*v	*v
=201	=201	=201
*M6/8	*M6/8	*M6/8
*	*^	*^
*	*	*^	*	*^
2.r	4rc	2.B	8B\L	2.raa	8dd#XL	2.g##X\
.	.	.	8C#\	.	8ddn	.
.	[8e#X	.	8e#\J	.	[8dd#XJ	.
.	4.e#]	.	4r	.	8dd#L]	.
.	.	.	.	.	8ddn	.
.	.	.	8r	.	8dd#XJ	.
*	*v	*v	*v	*	*	*
*	*	*v	*v	*v
=202	=202	=202
*M5/8	*M5/8	*M5/8
*	*^	*^
*	*	*	*	*^
3...r	4.e#X	[4.B	[4.bb	8dd#L	[4.g##X\
.	.	.	.	8ddn	.
.	.	.	.	8dd#X	.
.	8enL	4B]	4bb]	8ee	4g##\]
.	8d#J	.	.	8ee#XJ	.
*	*v	*v	*	*	*
*	*	*v	*v	*v
=203	=203	=203
*M6/8	*M6/8	*M6/8
*	*	*^
2.r	40%3dnL	4raa	2.ccn [2.ff#
.	40%3A-X	.	.
.	40%3BB-X	.	.
.	40%3A-	.	.
.	.	8raa	.
.	40%3dJ	.	.
.	[4.a-X	4.een 4.eeen	.
=204	=204	=204	=204
*	*^	*	*
*	*	*^	*	*
2.r	8a-L]	4rEE	4r	4.ccn 4.cccn	8ff#L]
.	8gn	.	.	.	8ggn
.	8g-XJ	8rEE	8r	.	8aa-XJ
.	.	16qqGGn\LL	[8qGG/	.	.
.	.	[16qqFn\JJ	.	.	.
.	8BL 8an	4.F] 4.fn	4.GG/]	4.cc#X 4.ffn 4.ccc#X	8aanL
.	8B-X 8b-X	.	.	.	8bb-X
.	8AnJ 8bn	.	.	.	8bbnJ
*	*	*v	*v	*	*
*	*	*	*v	*v
=205	=205	=205	=205
2.r	8B#XL 8f# 8b#X	2.EE 2.Dn 2.G#	4ddn 4ff#X 4bb#X 4dddn
.	8Bn 8f# 8bn	.	.
.	8B#XJ 8f# 8b#X	.	[8ff# [8gg# [8ddd [8ggg#
.	8B#L 8f# 8b#	.	4ff#] 4gg#] 4ddd] 4ggg#]
.	8Bn 8f# 8bn	.	.
.	8B#XJ 8f# 8b#X	.	[8ff# [8gg# [8ddd [8ggg#
*	*v	*v	*
=206	=206	=206
2.r	8B#XL 8f# 8b#X	4ff#] 4gg#] 4ddd] 4ggg#]
.	8Bn 8f# 8bn	.
.	8B#XJ 8f# 8b#X	[8ff# [8gg# [8dddn [8ggg#
.	8B#L 8f# 8b#	4ff#] 4gg#] 4ddd] 4ggg#]
.	8Bn 8f# 8bn	.
.	8B#XJ 8f# 8b#X	8ff# 8gg# 8ddd 8ggg#
=207	=207	=207
*	*	*^
2.r	4Dn 4G#	8raa	4.B#X 4.f#
.	.	4ddn	.
.	8EE	.	.
.	4.CC# 4.GG# 4.F# 4.B#X	4ff#	4.e 4.a#X
.	.	8a#	.
*	*	*v	*v
=208	=208	=208
2.r	16%3r	8d#X 8f# 8bn
.	.	[4f# [4a#X [4dd#X
.	16%3F#	.
.	16%3BBn	8f#L] 8a#] 8dd#]
.	.	8d# 8f# 8a#
.	16%3CC#	.
.	.	8BnJ 8d# 8g#
=209	=209	=209
2.r	16%3r	4d# 4f# 4a#X
.	16%3F#	.
.	.	[8B [8d# [8g#
.	16%3BB	8BL] 8d#] 8g#]
.	.	8a# 8dd# 8ff#
.	16%3CC#	.
.	.	8BJ 8d# 8g#
=210	=210	=210
2.r	16%3r	4d# 4f# 4a#X
.	16%3F#	.
.	.	[8B [8d# [8g#
.	16%3BB	8BL] 8d#] 8g#]
.	.	8d# 8f# 8a#
.	16%3CC#	.
.	.	8BJ 8d# 8g#
=211	=211	=211
2.r	4B	8r
.	.	8bL
.	[8E#X	8d#J
*	*	*clefF4
.	8E#]	[4.F##X
.	4BB	.
=212	=212	=212
2.r	20%3CC#	4.F##]
.	20%3CCC#	.
.	20%3CC#	.
.	.	4.G#
.	20%3BB	.
.	20%3E#X	.
=213	=213	=213
2.r	4.CCC# 4.CC#	4D# 4F#X 4A#X 4B
*	*	*clefG2
.	.	8f# 8b 8dd#
.	[4.CC# [4.GG# [4.D# [4.B	4a#X 4dd# 4ff#
.	.	8d# 8f# 8a#
=214	=214	=214
2.r	2.CC#] 2.GG#] 2.D#] 2.B]	8d# 8f# 8b
.	.	[4f# [4a#X [4dd#
.	.	8f#L] 8a#] 8dd#]
.	.	8d# 8f# 8a#
.	.	8BJ 8d# 8g#
=215	=215	=215
2.r	4B	8r
.	.	8bL
.	[8E#X	8d#J
*	*	*clefF4
.	8E#]	[4.F##X
.	4BB	.
=216	=216	=216
2.r	20%3CC#	4.F##]
.	20%3CCC#	.
.	20%3CC#	.
.	.	4.G#
.	20%3BB	.
.	20%3E#X	.
=217	=217	=217
*	*^	*
*	*	*^	*
2.r	4rc	4rEE	[2.GGGn\ [2.GGn	8C# 8Fn 8B
.	.	.	.	8fnL
.	8rc	8rEE	.	8AJ
.	8rc	8rEE	.	[4.C#
.	8FnL	[4F	.	.
.	[8BJ	.	.	.
=218	=218	=218	=218	=218
2.r	2.B] 2.a	2.F]	2.GGG/] 2.GG]	4.C#]
.	.	.	.	4.Dn
*	*v	*v	*v	*
=219	=219	=219
*	*	*clefG2
*	*	*^
2.r	2.DD-X 2.D-X	2.ryy	8c-XL 8fn 8a
.	.	.	8c- 8f 8a-X
.	.	.	[8c-J [8f [8an
.	.	.	8c-L] 8f] 8a]
.	.	.	8c- 8f 8a-X
.	.	.	[8c-J [8f [8an
*	*	*v	*v
=220	=220	=220
*M5/8	*M5/8	*M5/8
*	*	*^
3...r	4r	[4.ffn	8c-L] 8f] 8a]
.	.	.	8c-X 8fn 8a-X
.	8r	.	8c- 8f 8an
.	8B-XL	4ff]	8f 8b-X
.	8AJ	.	8fJ 8bn
*	*	*v	*v
=221	=221	=221
*M6/8	*M6/8	*M6/8
*	*	*^
2.r	2.BB-X 2.A-X	2.ryy	8dnL 8f#X 8ccn
.	.	.	8d 8f# 8cc-X
.	.	.	[8dJ [8f# [8ccn
.	.	.	8dL] 8f#] 8cc]
.	.	.	8d 8f# 8cc-X
.	.	.	[8dJ [8f# [8ccn
*	*	*v	*v
=222	=222	=222
*M5/8	*M5/8	*M5/8
*	*	*^
3...r	4r	[4.aa-X	8dL] 8f#] 8cc]
.	.	.	8dn 8f# 8cc-X
.	8r	.	8d 8f# 8ccn
.	8d-XL	4aa-]	8f# 8dd-X
.	8cnJ	.	8f#J 8ddn
*	*	*v	*v
=223	=223	=223
*M6/8	*M6/8	*M6/8
*	*	*^
2.r	4.GGn 4.Fn 4.B	4raa	8fnL 8an 8dd#X
.	.	.	8f 8a 8ddn
.	.	8raa	[8fJ [8a [8dd#X
.	4r	4.ccc#X	8fL] 8a] 8dd#]
.	.	.	8f 8a 8ddn
.	8r	.	[8fJ [8a [8dd#X
=224	=224	=224	=224
2.r	4r	4.aa	40%3fL] 40%3a] 40%3dd#]
.	.	.	40%3fn 40%3a 40%3ddn
.	.	.	40%3f 40%3a 40%3dd#X
.	.	.	40%3a 40%3dd# 40%3ee
.	8r	.	.
.	.	.	40%3aJ 40%3dd# 40%3ffn
.	16%3Dn 16%3G# 16%3dn	4.bb-X	40%3b-XL 40%3ddn 40%3ff#X
.	.	.	40%3b- 40%3dd 40%3ffn
.	.	.	40%3b- 40%3dd 40%3ff#X
.	16%3EE	.	.
.	.	.	40%3b- 40%3dd 40%3ggn
.	.	.	40%3b-J 40%3dd 40%3gg#X
=225	=225	=225	=225
2.r	16%3E#X 16%3B 16%3e#X	4.bbn	8bnL 8dd#X 8aan
.	.	.	8b 8dd# 8gg#
.	16%3CC# 16%3C#	.	.
.	.	.	8bJ 8dd# 8ggn
.	16%3Dn 16%3G# 16%3dn	4.bb-X	40%3b-XL 40%3ddn 40%3ff#
.	.	.	40%3b- 40%3dd 40%3ffn
.	.	.	40%3b- 40%3dd 40%3ff#X
.	16%3EEn	.	.
.	.	.	40%3b- 40%3dd 40%3gg
.	.	.	40%3b-J 40%3dd 40%3gg#X
=226	=226	=226	=226
2.r	16%3E#X 16%3B 16%3e#X	4.bbn	8bnL 8dd#X 8aan
.	.	.	8b 8dd# 8gg#
.	16%3CC# 16%3C#	.	.
.	.	.	8bJ 8dd# 8ggn
.	16%3En 16%3A#X 16%3en	[20%3.bb#X	40%3b#XL 40%3ee 40%3gg#X
.	.	.	40%3b# 40%3ee 40%3ggn
.	.	.	40%3b# 40%3ee 40%3gg#X
.	16%3FFF# 16%3FF#	.	.
.	.	40%3bb#L]	40%3b# 40%3ee 40%3aan
.	.	40%3ccc#J	40%3cc#J 40%3ee 40%3aa#X
*	*	*v	*v
=227	=227	=227
2.r	8FF# 8Dn 8An	8ddn 8ff# 8aan 8dddn
*	*	*clefF4
.	8FF#L	8F#L 8A 8dn
.	8DJ	[8AJ [8c# [8f#
.	8FF#L	8AL] 8c#] 8f#]
.	8FF#	8F# 8A 8c#
.	8FFF#J	8DnJ 8F# 8Bn
=228	=228	=228
*	*	*clefG2
2.r	2.r	8c#L 8f# 8a
.	.	8Dn 8F# 8B
.	.	8c# 8f# 8a
.	.	8D 8F# 8B
.	.	8c# 8f# 8a
.	.	8DJ 8F# 8B
*	*	*clefF4
=229	=229	=229
2.r	4FF#	8r
.	.	8EL 8Gn 8cn
.	8Cn	8GJ 8B 8e
.	8FF#L	8r
.	8FF#	8EL 8G 8B
.	8FFF#J	8CnJ 8E 8A
*	*	*clefG2
=230	=230	=230
2.r	8FF#L	8r
.	8A	8c#XL 8e 8a
.	8BBJ	8eJ 8g#X 8cc#
.	8FF#L	8r
.	8FF#	8c#L 8e 8g#
.	8FFF#J	8AJ 8c# 8f#
=231	=231	=231
*	*	*^
2.r	8EL	4raa	8rc
.	8FFn	.	8fnL 8a 8ddn
.	8CCnJ	8raa	8aJ 8ccn 8ee
.	4r	4.cc	8cnL 8f 8a
.	.	.	8e 8a 8cc
.	8r	.	8AJ 8c 8f
=232	=232	=232	=232
2.r	4AAA 4FFn 4Cn	4raa	8cnL 8e 8a
.	.	.	8Fn 8A 8dn
.	8r	8raa	8AJ 8c 8e
.	4r	4.a 4.ccn 4.ee	8CnL 8A
.	.	.	8F 8A 8c
.	8r	.	8EJ 8A 8c
=233	=233	=233	=233
*	*^	*	*
2.r	4rc	4.BBB 4.AA	4raa	4D# 4A 4c#X
.	8a	.	8cc# 8ee#X 8aa	8rc
.	[4.e#X	8e#L	[4.a [4.cc# [4.ee#	4rc
.	.	8c#	.	.
.	.	8AJ	.	8rc
*	*	*	*v	*v
=234	=234	=234	=234
2.r	4.e#]	8D#L	4.a] 4.cc#] 4.ee#]
.	.	8AA	.
.	.	8BBBJ	.
.	4.f#	4rEE	4.a 4.cc# 4.ff#
.	.	8rEE	.
*	*v	*v	*
=235	=235	=235
2.r	8BBBL	8r
.	8Dn	8BL 8dn 8gn
.	8GGnJ	8dJ 8f# 8b
.	8BBBL	8r
.	8BBB	8BL 8d 8f#
.	8BBBBJ	8GnJ 8B 8en
=236	=236	=236
2.r	2.r	8f#L 8b 8ddn
.	.	8Gn 8B 8e
.	.	8f# 8b 8dd
.	.	8G 8B 8e
.	.	8f# 8b 8dd
.	.	8GJ 8B 8e
=237	=237	=237
2.r	4BB	8r
.	.	8AL 8cn 8fn
.	8Fn	8cJ 8e 8a
.	8BBL	8r
.	8BB	8AL 8c 8e
.	8BBBJ	8FnJ 8A 8dn
=238	=238	=238
2.r	8BBL	8r
.	8dn	8f#XL 8a 8ddn
.	8EJ	8aJ 8cc#X 8ff#
.	8BBL	8r
.	8BB	8f#L 8a 8cc#
.	8BBBJ	8dnJ 8f# 8b
=239	=239	=239
*	*	*^
2.r	8AL	4raa	8rc
.	8BB-X	.	8b-XL 8ddn 8ggn
.	8FFnJ	8raa	8ddJ 8ffn 8aa
.	4r	4.ff	8fnL 8b- 8dd
.	.	.	8a 8dd 8ff
.	8r	.	8dnJ 8f 8b-
=240	=240	=240	=240
2.r	4DDn 4BB-X 4Fn	4raa	8fnL 8a 8ddn
.	.	.	8B-X 8dn 8gn
.	8r	8raa	8dJ 8f 8a
.	4r	4.dd 4.ffn 4.aa	8FnL 8B- 8d
.	.	.	8B- 8d 8f
.	8r	.	8AJ 8d 8f
=241	=241	=241	=241
*	*^	*	*
2.r	4rc	4.EE 4.Dn	4raa	4G#X 4dn 4f#X
.	8ddn	.	8ff#X 8aa#X 8dddn	8rc
.	[4.a#X	8a#L	[4.ddn [4.ff# [4.aa#	4rc
.	.	8f#	.	.
.	.	8dnJ	.	8rc
*	*	*	*v	*v
=242	=242	=242	=242
2.r	4.a#]	8G#L	4.dd] 4.ff#] 4.aa#]
.	.	8Dn	.
.	.	8EEJ	.
.	4.b	4rEE	4.ddn 4.ff# 4.bb
.	.	8rEE	.
*	*v	*v	*
=243	=243	=243
2.r	8EEL	8r
.	8Gn	8ccnL 8ee 8aan
.	8CnJ	8eeJ 8ggn 8bb
.	8EEL	8gnL 8cc 8ee
.	8EE	8b 8ee 8gg
.	8EEEJ	8eJ 8g 8cc
=244	=244	=244
2.r	2.r	8gnL 8b 8ee
.	.	8cn 8e 8a
.	.	8eJ 8g 8b
.	.	8GnL 8c 8e
.	.	8B 8e 8g
.	.	8EJ 8G 8c
=245	=245	=245
2.r	8EEE 8EE	8r
.	8r	8cnL 8e 8a
.	8r	8eJ 8gn 8b
.	4r	8GnL 8c 8e
.	.	8B 8e 8g
.	8CCn 8Cn	8EJ 8G 8B
=246	=246	=246
2.r	8EEE 8EE	8r
.	8r	8cnL 8e 8a
.	8r	8eJ 8gn 8b
.	4r	8GnL 8c 8e
.	.	8B 8e 8g
.	8CCn 8Cn	8EJ 8G 8B
=247	=247	=247
*M2/4	*M2/4	*M2/4
2r	16CnLL	8r
.	16EEJJ	.
.	.	16qqGn/LL
.	.	16qqcn/
.	.	16qqdn/
.	.	16qqe/JJ
.	8r	8f#X
.	16GnLL	8r
.	16CJJ	.
.	.	16qqc/LL
.	.	16qqe/
.	.	16qqgn/
.	.	16qqa/JJ
.	8r	8b
=248	=248	=248
2r	16cnLL	8r
.	16EJJ	.
.	.	16qqgn/LL
.	.	16qqccn/
.	.	16qqddn/
.	.	16qqee/JJ
.	8r	8ff#
.	16gnLL	8r
.	16cJJ	.
.	.	16qqcc/LL
.	.	16qqee/
.	.	16qqggn/
.	.	16qqaa/JJ
.	8r	8bb
=249	=249	=249
2r	16gnLL	8r
.	16cnJJ	.
.	.	16qqccn/LL
.	.	16qqee/
.	.	16qqggn/
.	.	16qqaa/JJ
.	8r	8bb
.	16cLL	8r
.	16EJJ	.
.	.	16qqgn/LL
.	.	16qqcc/
.	.	16qqddn/
.	.	16qqee/JJ
.	8r	8ff#
=250	=250	=250
2r	16gnLL	8r
.	16cnJJ	.
.	.	16qqccn/LL
.	.	16qqee/
.	.	16qqggn/
.	.	16qqaa/JJ
.	8r	8bb
.	16cLL	8r
.	16EJJ	.
.	.	16qqgn/LL
.	.	16qqcc/
.	.	16qqddn/
.	.	16qqee/JJ
.	8r	8ff#
=251	=251	=251
*M1/2	*M1/2	*M1/2
*	*^	*
2r	4gn	12gL	4r
.	.	12b	.
.	.	12gJ	.
.	4rc	12c#XL	4bb
.	.	12Gn	.
.	.	12AAJ	.
=252	=252	=252	=252
*	*	*	*^
2r	4d#	12d#L	6raa	2ff#
.	.	12b	.	.
.	.	12gnJ	12fff#	.
.	4rc	12c#L	6aaa	.
.	.	12Gn	.	.
.	.	12AAJ	12fff#	.
*	*	*	*v	*v
=253	=253	=253	=253
2r	4gn	12gL	4r
.	.	12b	.
.	.	12gJ	.
.	4rc	12c#L	4bb
.	.	12Gn	.
.	.	12AAJ	.
=254	=254	=254	=254
*	*	*	*^
2r	4d#	12d#L	6raa	2ff#
.	.	12b	.	.
.	.	12gnJ	12fff#	.
.	4rc	12c#L	6aaa	.
.	.	12Gn	.	.
.	.	12AAJ	12fff#	.
*	*	*	*v	*v
=255	=255	=255	=255
2r	2f#	6rEE	4r
.	.	12c#	.
.	.	.	16qqf#/LL
.	.	.	16qqcc#/
.	.	.	16qqff#/JJ
.	.	12BL	4bb
.	.	12Gn	.
.	.	12AAJ	.
=256	=256	=256	=256
2r	2fn	6rEE	4r
.	.	12dn	.
.	.	.	16qqb/LL
.	.	.	16qqddn/
.	.	.	16qqffn/JJ
.	.	12BL	4dddn
.	.	12Gn	.
.	.	12AAJ	.
=257	=257	=257	=257
2r	2e	12eL	4r
.	.	12b	.
.	.	12gnJ	.
.	.	.	16qqcc#/LL
.	.	.	16qqggn/
.	.	.	16qqbb/JJ
.	.	12c#L	4gggn
.	.	12Gn	.
.	.	12AAJ	.
=258	=258	=258	=258
2r	12rc	4e-X	8r
.	6gn 6b	.	.
.	.	.	16qqcc#/LL
.	.	.	16qqggn/
.	.	.	16qqbb/JJ
.	.	.	8ddd#XL
.	12rc	4dn	8r
.	6g 6b	.	.
.	.	.	16qqddn/LL
.	.	.	16qqgg/
.	.	.	16qqbb/JJ
.	.	.	8eeeJ
=259	=259	=259	=259
2r	12rc	4c#	8r
.	6gn 6b	.	.
.	.	.	16qqdd#X/LL
.	.	.	16qqggn/
.	.	.	16qqbb/JJ
.	.	.	8fffn
.	12AAL	4rEE	8r
.	12Gn	.	.
.	.	.	[8bb [8fff [8bbb
.	12c#J	.	.
*	*v	*v	*
*	*clefG2	*
=260	=260	=260
2r	12gnL	6bb] 6fff] 6bbb]
.	12b	.
.	12cc#J	[12bb [12fffn [12bbb
.	8ffn	6bb] 6fff] 6bbb]
.	8r	.
.	.	[12bb [12fff [12bbb
=261	=261	=261
2r	2r	6bb] 6fff] 6bbb]
.	.	[12bb [12fffn [12bbb
.	.	6bb] 6fff] 6bbb]
.	.	[12bb [12fff [12bbb
=262	=262	=262
2r	2r	6bb] 6fff] 6bbb]
.	.	[12bb [12fffn [12bbb
.	.	6bb] 6fff] 6bbb]
.	.	12bb 12fff 12bbb
*	*clefF4	*
=263||	=263||	=263||
*M6/8	*M6/8	*M6/8
*	*^	*^
2.r	4rc	8AAL	4raa	4rc
.	.	8Gn	.	.
.	8rc	8c#J	[8ffn [8fffn	[8bb
.	4.b	8bL	4ff] 4fff]	4.bb]
.	.	8gn	.	.
.	.	8c#J	8ff#X 8fff#X	.
=264	=264	=264	=264	=264
2.r	2.f#	2.AA 2.D# 2.Gn 2.c# 2.f#	4bb 4fff# 4bbb	4rc
.	.	.	[8cc# [8ccc#	8ff#
.	.	.	4.cc#] 4.ccc#]	4aa
.	.	.	.	8ff#
*	*v	*v	*	*
=265	=265	=265	=265
2.r	8AAL	4raa	[4.ee#X
.	8Gn	.	.
.	8c#J	[8cc# [8ccc#	.
.	8bL	4cc#] 4ccc#]	4ee#]
.	8gn	.	.
.	8c#J	8cc# 8ccc#	8ff#
=266	=266	=266	=266
2.r	8e-XL 8gn	4cc# 4ccc#	4.ggn
.	8A	.	.
.	8FnJ	8ddn 8dddn	.
.	8fnL 8b-X	4dd 4ddd	4.bb-X
.	8c-X	.	.
.	8D-XJ	8ee-X 8eee-X	.
=267	=267	=267	=267
*	*^	*	*
2.r	4rc	8BB-XL	4ee-X 4eee-X	4.aa-X 4.dddn
.	.	8A-X	.	.
.	8rc	8dnJ	8een 8eeen	.
.	4.ccn	8ccL	8ffnL 8fffn	4.ddd
.	.	8a-X	8ff#X 8fff#X	.
.	.	8dJ	8ggnJ 8gggn	.
=268	=268	=268	=268	=268
2.r	2.gn	2.BB-X 2.E 2.A-X 2.dn 2.g	4cccn 4gggn 4ccccn	4rc
.	.	.	[8ddn [8dddn	8ggn
.	.	.	4.dd] 4.ddd]	4bb-X
.	.	.	.	8gg
*	*v	*v	*	*
=269	=269	=269	=269
2.r	8BB-XL	4raa	4rc
.	8A-X	.	.
.	8dnJ	[8ddn [8dddn	[8aa-X
.	8ccnL	4dd] 4ddd]	4.aa-]
.	8a-X	.	.
.	8dJ	8dd 8ddd	.
=270	=270	=270	=270
2.r	8A#XL 8e	4cc##X 4ccc##X	4.aa#X
.	8EJ	.	.
.	8r	8dd# 8ddd#	.
.	8EL 8A# 8e	4f##X 4ff##X	4.dd#
.	8FF#XJ	.	.
.	8r	8g# 8gg#	.
=271	=271	=271	=271
*	*	*	*^
2.r	16ELL	4raa	8g#L	4.A#X\ 4.e
.	16FF#	.	.	.
.	16BBB	.	8f##X	.
.	16BBBBJJ	.	.	.
.	8r	8raa	8g#J	.
.	4r	[4.dd#	8g#L	4.A#\ 4.e
.	.	.	8f##	.
.	8r	.	[8g#J	.
=272	=272	=272	=272	=272
2.r	16ELL	4dd#]	40%3g#L]	4.A#X\
.	16FF#	.	.	.
.	.	.	40%3gn	.
.	16BBB	.	.	.
.	.	.	40%3f#	.
.	16BBBBJJ	.	.	.
.	.	.	40%3e#X	.
.	8r	8cc#	.	.
.	.	.	40%3enJ	.
.	4.BBB 4.FF# 4.E	8f##XL	16d#LL	8A#\L
.	.	.	16dn	.
.	.	8g#X	16c#	8An\
.	.	.	16cn	.
.	.	8eJ 8g# 8dd#X	16B	8G#\J
.	.	.	16A#XJJ	.
*	*	*v	*v	*v
=273	=273	=273
2.r	8BB#X 8E 8A#X 8d#	8a#X 8dd# 8ff#X
.	16BBBBnLL	8r
.	16BBBn	.
.	16FF#	8r
.	16EJJ	.
.	16BB#XLL	4r
.	16E	.
.	16A#	.
.	16d#JJ	.
.	8r	24a#LL
.	.	24dd#
.	.	24ff#JJ
=274	=274	=274
*	*clefG2	*
*	*	*^
2.r	16B#XLL	4raa	4rc
.	16e	.	.
.	24a#X	.	.
.	24dd#	.	.
.	24aa#XJJ	.	.
.	8r	12raa	24ddd#LL
.	.	.	24fff#
.	.	24ddd# 24dddd#	24ddd#JJ
.	16b#XLL	8fff# 8ffff#	4rc
.	16ee	.	.
.	16aa#	8raa	.
.	16ddd#JJ	.	.
.	8r	8raa	24aaa#XLL
.	.	.	24dddd#
.	.	.	24ffff#JJ
*	*	*v	*v
*	*clefF4	*
=275	=275	=275
*	*	*^
*	*	*	*^
2.r	16ELL	4raa	8g#L	4.A#X\ 4.e
.	16FF#	.	.	.
.	16BBB	.	8f##X	.
.	16BBBBJJ	.	.	.
.	8r	8raa	8g#J	.
.	4r	[4.dd#	8g#L	4.A#\ 4.e
.	.	.	8f##	.
.	8r	.	[8g#J	.
=276	=276	=276	=276	=276
2.r	16ELL	4dd#]	40%3g#L]	4.A#X\
.	16FF#	.	.	.
.	.	.	40%3gn	.
.	16BBB	.	.	.
.	.	.	40%3f#	.
.	16BBBBJJ	.	.	.
.	.	.	40%3e#X	.
.	8r	8cc#	.	.
.	.	.	40%3enJ	.
.	4.BBB 4.FF# 4.E	8f##XL	16d#LL	8A#\L
.	.	.	16dn	.
.	.	8g#X	16c#	8An\
.	.	.	16cn	.
.	.	8eJ 8g# 8dd#X	16B	8G#\J
.	.	.	16A#XJJ	.
*	*	*v	*v	*v
=277	=277	=277
2.r	8BB#X 8E 8A#X 8d#	8a#X 8dd# 8gg#
.	16BBBBnLL	8r
.	16BBBn	.
.	16FF#	8r
.	16EJJ	.
.	16BB#XLL	4r
.	16E	.
.	16A#	.
.	16d#JJ	.
.	8r	24a#LL
.	.	24dd#
.	.	24gg#JJ
=278	=278	=278
*	*clefG2	*
*	*	*^
2.r	16B#XLL	4raa	4rc
.	16e	.	.
.	24a#X	.	.
.	24dd#	.	.
.	24aa#XJJ	.	.
.	8r	12raa	24ddd#XLL
.	.	.	24ggg#
.	.	24ddd# 24dddd#	24ddd#JJ
.	16b#XLL	8ggg# 8gggg#	4rc
.	16ee	.	.
.	16aa#	8raa	.
.	16ddd#JJ	.	.
.	8r	8raa	24aaa#XLL
.	.	.	24dddd#
.	.	.	24gggg#JJ
*	*	*v	*v
*	*clefF4	*
=279	=279	=279
*	*	*^
*	*	*	*^
2.r	16ELL	4raa	8g#L	4.A#X\ 4.e
.	16FF#	.	.	.
.	16BBB	.	8f##X	.
.	16BBBBJJ	.	.	.
.	8r	8raa	8g#J	.
.	4r	[4.gg#	8dd#L	4.e\ 4.a#X
.	.	.	8cc##X	.
.	8r	.	[8dd#J	.
=280	=280	=280	=280	=280
2.r	16ELL	4gg#]	40%3dd#L]	4.A#X\ 4.e
.	16FF#	.	.	.
.	.	.	40%3ddn	.
.	16BBB	.	.	.
.	.	.	40%3cc#	.
.	16BBBBJJ	.	.	.
.	.	.	40%3ccn	.
.	8r	8ff#	.	.
.	.	.	40%3bJ	.
.	4.BBBn 4.FF# 4.E	8b#XL	16a#XLL	[4A#\ 4e
.	.	.	16an	.
.	.	8cc#X	16g#	.
.	.	.	16gn	.
.	.	8gg#XJ	24f#	8A#\]
.	.	.	24e#X	.
.	.	.	24enJJ	.
*	*	*v	*v	*v
*	*	*clefF4
=281||	=281||	=281||
*M2/4	*M2/4	*M2/4
2r	16GG#LL	8EL 8Bn 8d#X
.	16BBBJJ	.
.	8r	16r
.	.	16c##XJk
.	16BBBLL	8EL 8B 8d#
.	16BBBBJJ	.
.	8r	16r
.	.	16c##Jk
=282	=282	=282
2r	16BBBLL	8EL 8B 8d#
.	16GG#JJ	.
.	8r	16r
.	.	16d#Jk
.	4Cn	4G# 4B 4e
*	*	*clefG2
=283	=283	=283
*M6/8	*M6/8	*M6/8
*	*	*^
*	*	*	*^
2.r	16ELL	4raa	8g#L	4.A#X\ 4.e
.	16FF#	.	.	.
.	16BBB	.	8f##X	.
.	16BBBBJJ	.	.	.
.	8r	8raa	8g#J	.
.	4r	[4.dd# [4.ddd#	8g#L	4.A#\ 4.e
.	.	.	8f##	.
.	8r	.	[8g#J	.
=284	=284	=284	=284	=284
*	*^	*	*	*
2.r	16ELL	4rEE	4dd#] 4ddd#]	40%3g#L]	4.A#X\ 4.e
.	16FF#	.	.	.	.
.	.	.	.	40%3gn	.
.	16BBBJJ	.	.	.	.
.	.	.	.	40%3f#	.
.	16rc	.	.	.	.
.	.	.	.	40%3e#X	.
.	8rc	8rEE	8cc# 8ccc#	.	.
.	.	.	.	40%3enJ	.
.	8A#XL	4.E	8f##XL 8ff##X	16d#LL	4r
.	.	.	.	16dn	.
.	8An	.	8g#X 8gg#X	16c#	.
.	.	.	.	16cn	.
.	8G#J	.	8eJ 8g# 8dd#X 8ddd#X	16B	8r
.	.	.	.	16A#JJ	.
*	*v	*v	*	*	*
*	*	*v	*v	*v
=285	=285	=285
*M2/4	*M2/4	*M2/4
2r	16DnLL	8GnL 8B 8dn 8f#X
.	16GGnJJ	.
.	8r	16r
.	.	16e#XJk
.	16BBBLL	8GL 8B 8d 8f#
.	16BBBBJJ	.
.	8r	16r
.	.	16e#Jk
=286	=286	=286
2r	16GGnLL	8GnL 8B 8dn 8f#
.	16DnJJ	.
.	8r	16r
.	.	16f#Jk
.	4E-X	4B 4d 4gn
=287	=287	=287
*M6/8	*M6/8	*M6/8
*	*	*^
*	*	*	*^
2.r	16EnLL	4raa	8g#XL	4.A#X\ 4.e
.	16FF#	.	.	.
.	16DD#	.	8f##X	.
.	16BBBBJJ	.	.	.
.	8r	8raa	8g#J	.
.	4r	[4.gg# [4.ggg#	8dd#L	4.e\ 4.a#X
.	.	.	8cc##X	.
.	8r	.	[8dd#J	.
=288	=288	=288	=288	=288
2.r	16ELL	4gg#] 4ggg#]	40%3dd#L]	4.A#X\ 4.e
.	16FF#	.	.	.
.	.	.	40%3ddn	.
.	16BBBJJ	.	.	.
.	.	.	40%3cc#	.
.	16r	.	.	.
.	.	.	40%3ccn	.
.	8r	8ff# 8fff#	.	.
.	.	.	40%3bJ	.
.	[4A#X 4e	8b#XL 8bb#X	16a#XLL	4.r
.	.	.	16an	.
.	.	8cc#X 8ccc#X	16g#	.
.	.	.	16gn	.
.	8A#]	8gg#XJ 8ggg#X	24f#	.
.	.	.	24e#X	.
.	.	.	24enJJ	.
*	*	*v	*v	*v
=289	=289	=289
*M2/4	*M2/4	*M2/4
2r	16DnLL	8GnL 8Bn 8dn 8f#
.	16GGnJJ	.
.	8r	16r
.	.	16e#XJk
.	16BBBLL	8GL 8B 8d 8f#
.	16BBBBJJ	.
.	8r	16r
.	.	16e#Jk
=290	=290	=290
2r	16GGnLL	8GnL 8B 8dn 8f#
.	16DnJJ	.
.	8r	16r
.	.	16f#Jk
.	4E-X	4B 4d 4gn
=291	=291	=291
2r	16F#LL	8BL 8d#X 8f# 8a#X
.	16BBJJ	.
.	8r	16r
.	.	16g##XJk
.	16DD#LL	8BL 8d# 8f# 8a#
.	16DDD#JJ	.
.	8r	16r
.	.	16g##Jk
=292	=292	=292
2r	16BBLL	8BL 8d# 8f# 8a#X
.	16F#JJ	.
.	8r	16r
.	.	16a#Jk
.	4Gn	4d# 4f# 4b
=293	=293	=293
2r	16BLL	8e#XL 8g# 8b 8dd#
.	16G#XJJ	.
.	8r	16r
.	.	16cc##XJk
.	16C#XLL	8e#L 8g# 8b 8dd#
.	16CC#XJJ	.
.	8r	16r
.	.	16cc##Jk
=294	=294	=294
2r	16G#LL	8e#XL 8g# 8b 8dd#
.	16BJJ	.
.	8r	16r
.	.	16cc##XJk
.	4GG# 4E 4B	8enL 8g# 8b 8dd#
.	.	16r
.	.	16dd#Jk
=295	=295	=295
2r	4cn	8g#L 8b 8ee
.	.	16r
.	.	16cc##XJk
.	4GG# 4E 4B	8eL 8g# 8b 8dd#
.	.	16r
.	.	16dd#Jk
=296	=296	=296
2r	4cn	8g#L 8b 8ee
.	.	16r
.	.	16eeJk
.	4F# 4c#X 4e	4a#X 4cc# 4gg#
=297	=297	=297
2r	16ELL	8AnL 8c# 8e 8g#
.	16AAJJ	.
.	8r	16r
.	.	16f##XJk
.	16CC#LL	8AL 8c# 8e 8g#
.	16CCC#JJ	.
.	8r	16r
.	.	16f##Jk
=298	=298	=298
2r	16AALL	8AL 8c# 8e 8g#
.	16EJJ	.
.	8r	16r
.	.	16g#Jk
.	4Fn	4c# 4e 4a
=299||	=299||	=299||
*k[b-e-a-d-g-]	*k[b-e-a-d-g-]	*k[b-e-a-d-g-]
2r	16A-LL	8d-L 8f 8a- 8cc
.	16D-JJ	.
.	8r	16r
.	.	16bnJk
.	16FFLL	8d-L 8f 8a- 8cc
.	16FFFJJ	.
.	8r	16r
.	.	16bJk
=300	=300	=300
2r	16D-LL	8d-L 8f 8a- 8cc
.	16A-JJ	.
.	8r	16r
.	.	16ccJk
.	4B--	4f 4a- 4dd-
=301	=301	=301
2r	16d-LL	8gnL 8b-X 8dd- 8ff
.	16B-XJJ	.
.	8r	16r
.	.	16eenJk
.	16E-XLL	8gL 8b- 8dd- 8ff
.	16EE-XJJ	.
.	8r	16r
.	.	16eeJk
=302	=302	=302
2r	16B-LL	8gnL 8b- 8dd- 8ff
.	16d-JJ	.
.	8r	16r
.	.	16eenJk
.	4BB- 4G- 4d-	8g-XL 8b- 8dd- 8ff
.	.	16r
.	.	16ffJk
=303	=303	=303
2r	4e--	8b-L 8dd- 8gg-
.	.	16r
.	.	16eenJk
.	4BB- 4G- 4d-	8g-L 8b- 8dd- 8ff
.	.	16r
.	.	16ffJk
=304	=304	=304
2r	4e--	8b-L 8dd- 8gg-
.	.	16r
.	.	16ffJk
.	4e--	4b- 4dd- 4gg-
=305	=305	=305
*M6/8	*M6/8	*M6/8
2.r	8BB- 8G- 8d-	4ff 4bb- 4ddd- 4fff
.	8B-L 8d- 8f	.
.	8G-J 8B- 8e-X	16r
.	.	16eeen
.	[4.f [4.b- [4.dd-	[4.ff [4.bb- [4.ddd- [4.fff
=306	=306	=306
2.r	4.f] 4.b-] 4.dd-]	8ffL] 8bb-] 8ddd-] 8fff]
.	.	8een 8bb- 8ddd- 8eeen
.	.	8ffJ 8bb- 8ddd- 8fff
.	4.f 4.b- 4.dd-	8ffL 8bb- 8ddd- 8fff
.	.	8ee 8bb- 8ddd- 8eee
.	.	8ffJ 8bb- 8ddd- 8fff
=307	=307	=307
.	[8qEE-X/ [8qE-X	.
2.r	2.EE-] 2.E-] 2.d- 2.f 2.gn 2.b- 2.dd-	8ffL 8bb- 8ddd- 8fff
.	.	8een 8bb- 8ddd- 8eeen
.	.	8ffJ 8bb- 8ddd- 8fff
.	.	8ffL 8bb- 8ddd- 8fff
.	.	8ee 8bb- 8ddd- 8eee
.	.	8ffJ 8bb- 8ddd- 8fff
=308	=308	=308
.	[8qAAn/ [8qGn	.
2.r	2.AA] 2.G] 2.c#X 2.gn 2.bn 2.cc#X	8ee#XL 8bbn 8ccc#X 8eee#X
.	.	8een 8bb 8ccc# 8eeen
.	.	8ee#XJ 8bb 8ccc# 8eee#X
.	.	8ee#L 8bb 8ccc# 8eee#
.	.	8een 8bb 8ccc# 8eeen
.	.	8ee#XJ 8bb 8ccc# 8eee#X
=309	=309	=309
2.r	8BB-X 8G-X 8d-X	4ffn 4bb-X 4ddd-X 4fffn
.	8B-L 8d- 8f	.
.	8G-J 8B- 8e-X	16r
.	.	16eeen
.	[4.f [4.b- [4.dd-	[4.ff [4.bb- [4.ddd- [4.fff
=310	=310	=310
2.r	4.f] 4.b-] 4.dd-]	8ffL] 8bb-] 8ddd-] 8fff]
.	.	8een 8bb- 8ddd- 8eeen
.	.	8ffJ 8bb- 8ddd- 8fff
.	4.f 4.b- 4.dd-	8ffL 8bb- 8ddd- 8fff
.	.	8ee 8bb- 8ddd- 8eee
.	.	8ffJ 8bb- 8ddd- 8fff
=311	=311	=311
.	[8qEE-X/ [8qE-X	.
2.r	2.EE-] 2.E-] 2.d- 2.f 2.gn 2.b- 2.dd-	8ffL 8bb- 8ddd- 8fff
.	.	8een 8bb- 8ddd- 8eeen
.	.	8ffJ 8bb- 8ddd- 8fff
.	.	8ffL 8bb- 8ddd- 8fff
.	.	8ee 8bb- 8ddd- 8eee
.	.	8ffJ 8bb- 8ddd- 8fff
=312	=312	=312
2.r	16%3EE- 16%3E-	32%3d-L 32%3f 32%3gn 32%3b-
.	.	32%3d- 32%3f 32%3g 32%3an
.	16%3AAA-X 16%3AA-X	32%3d- 32%3f 32%3g 32%3a
.	.	32%3d-J 32%3f 32%3g 32%3b-
.	16%3EE- 16%3E-	32%3d-L 32%3f 32%3g 32%3b-
.	.	32%3d- 32%3f 32%3g 32%3a
.	16%3AAA- 16%3AA-	32%3d- 32%3f 32%3g 32%3a
.	.	32%3d-J 32%3f 32%3g 32%3b-
=313	=313	=313
*	*^	*
2.r	8AAA-L 8AA-	4rEE	8G-X 8c 8g-X
.	8An 8an	.	8r
.	[8B-J [8b-	[8c [8g-	8r
.	8B-L] 8b-]	4c] 4g-]	[4.ff [4.ccc [4.fff
.	8A 8a	.	.
.	[8B-J [8b-	[8c [8g-	.
=314	=314	=314	=314
*	*	*^	*
2.r	40%3B-L] 40%3b-]	4.c] 4.g-]	20%3.r	4ff] 4ccc] 4fff]
.	40%3B-- 40%3b--	.	.	.
.	40%3A- 40%3a-	.	.	.
.	40%3Gn 40%3gn	.	20%3c\	.
.	.	.	.	8ee- 8ccc 8eee-
.	40%3G-XJ 40%3g-X	.	.	.
.	16FLL 16f	8G-L 8c	4r	8anL 8gg- 8aan
.	16F-X 16f-X	.	.	.
.	16E- 16e-	8G- 8c-X	.	8b- 8gg- 8bb-
.	16E-- 16e--	.	.	.
.	16D- 16d-	8G-J 8B-X	8r	8ffnJ 8bb- 8fffn
.	16CnJJ 16cn	.	.	.
*	*	*v	*v	*
=315	=315	=315	=315
2.r	4.EE-- 4.AA- 4.G-	4rEE	4.aa-X 4.ccc 4.ggg- 4.aaa-X
.	.	8rEE	.
.	4F-X 4f-X	4.G- 4.c	32%3ccL 32%3gg- 32%3ccc
.	.	.	32%3cc 32%3gg- 32%3ccc
.	.	.	32%3cc 32%3gg- 32%3ccc
.	8E-X 8e-X	.	.
.	.	.	32%3ccJ 32%3gg- 32%3ccc
=316	=316	=316	=316
2.r	4F-X 4f-X	4.G- 4.c	32%3ccL 32%3gg- 32%3ccc
.	.	.	32%3cc 32%3gg- 32%3ccc
.	.	.	32%3cc 32%3gg- 32%3ccc
.	8E- 8e-	.	.
.	.	.	32%3ccJ 32%3gg- 32%3ccc
.	4F- 4f-	4.G- 4.e-	32%3ccL 32%3gg- 32%3ccc
.	.	.	32%3cc 32%3gg- 32%3ccc
.	.	.	32%3cc 32%3gg- 32%3ccc
.	8E- 8e-	.	.
.	.	.	32%3ccJ 32%3gg- 32%3ccc
=317	=317	=317	=317
2.r	8AAA-L 8AA-	4rEE	8G- 8c 8g-
.	8An 8an	.	8r
.	[8B-J [8b-	[8c [8g-	8r
.	8B-L] 8b-]	4c] 4g-]	[4.ffn [4.ccc [4.fffn
.	8A 8a	.	.
.	[8B-J [8b-	[8c [8g-	.
=318	=318	=318	=318
*	*	*^	*
2.r	40%3B-L] 40%3b-]	4.c] 4.g-]	20%3.r	4ff] 4ccc] 4fff]
.	40%3B-- 40%3b--	.	.	.
.	40%3A- 40%3a-	.	.	.
.	40%3Gn 40%3gn	.	20%3c\	.
.	.	.	.	8ee- 8ccc 8eee-
.	40%3G-XJ 40%3g-X	.	.	.
.	16FLL 16f	8G-L 8c	4r	8anL 8gg- 8aan
.	16F-X 16f-X	.	.	.
.	16E- 16e-	8G- 8c-X	.	8b- 8gg- 8bb-
.	16E-- 16e--	.	.	.
.	16D- 16d-	8G-J 8B-X	8r	8ffnJ 8bb- 8fffn
.	16CnJJ 16cn	.	.	.
*	*	*v	*v	*
=319	=319	=319	=319
2.r	4.EE-- 4.AA- 4.G-	4rEE	4.bb- 4.ggg- 4.bbb-
.	.	8rEE	.
.	4F-X 4f-X	4.G- 4.c	32%3ccL 32%3gg- 32%3ccc
.	.	.	32%3cc 32%3gg- 32%3ccc
.	.	.	32%3cc 32%3gg- 32%3ccc
.	8E-X 8e-X	.	.
.	.	.	32%3ccJ 32%3gg- 32%3ccc
=320	=320	=320	=320
2.r	4F-X 4f-X	4.G- 4.c	32%3ccL 32%3gg- 32%3ccc
.	.	.	32%3cc 32%3gg- 32%3ccc
.	.	.	32%3cc 32%3gg- 32%3ccc
.	8E- 8e-	.	.
.	.	.	32%3ccJ 32%3gg- 32%3ccc
.	4F- 4f-	4.G- 4.c	32%3ccL 32%3gg- 32%3ccc
.	.	.	32%3cc 32%3gg- 32%3ccc
.	.	.	32%3cc 32%3gg- 32%3ccc
.	8E- 8e-	.	.
.	.	.	32%3ccJ 32%3gg- 32%3ccc
=321	=321	=321	=321
2.r	8DDD-L 8DD-	4rEE	8Fn 8c-X 8fn
*	*clefG2	*	*
.	8dn 8ddn	.	8r
.	[8e-J [8ee-	[8fn [8cc-X	8r
.	8e-L] 8ee-]	4f] 4cc-]	[4.bb- [4.fff [4.bbb-
.	8d 8dd	.	.
.	[8e-J [8ee-	[8f [8cc-	.
=322	=322	=322	=322
*	*	*^	*
2.r	40%3e-L] 40%3ee-]	4.f] 4.cc-]	20%3.r	4bb-] 4fff] 4bbb-]
.	40%3e-- 40%3ee--	.	.	.
.	40%3d- 40%3dd-	.	.	.
.	40%3cn 40%3ccn	.	20%3f/	.
.	.	.	.	8aa- 8fff 8aaa-
.	40%3c-XJ 40%3cc-X	.	.	.
.	16B-LL 16b-	8c-L 8f	4r	8ddnL 8ccc-X 8dddn
.	16B-- 16b--	.	.	.
.	16A- 16a-	8c- 8f-X	.	8ee- 8ccc- 8eee-
.	16A-- 16a--	.	.	.
.	16G- 16g-	8c-J 8e-X	8r	8bb-XJ 8eee- 8bbb-X
.	16FnJJ 16fn	.	.	.
*	*v	*v	*v	*
*	*clefF4	*
=323	=323	=323
*	*^	*
2.r	4.AAA-- 4.AA-- 4.D- 4.c-X	4rEE	4.eee- 4.cccc-X 4.eeee-
.	.	8rc	.
*	*clefG2	*	*
.	4B-- 4b--	4.c-X 4.f	32%3ffL 32%3ccc-X 32%3fff
.	.	.	32%3ff 32%3ccc- 32%3fff
.	.	.	32%3ff 32%3ccc- 32%3fff
.	8A-X 8a-X	.	.
.	.	.	32%3ffJ 32%3ccc- 32%3fff
=324	=324	=324	=324
2.r	4B-- 4b--	4.c-X 4.f	32%3ffL 32%3ccc-X 32%3fff
.	.	.	32%3ff 32%3ccc- 32%3fff
.	.	.	32%3ff 32%3ccc- 32%3fff
.	8A- 8a-	.	.
.	.	.	32%3ffJ 32%3ccc- 32%3fff
.	4B-- 4b--	4.c- 4.a-	32%3ffL 32%3ccc- 32%3fff
.	.	.	32%3ff 32%3ccc- 32%3fff
.	.	.	32%3ff 32%3ccc- 32%3fff
.	8A- 8a-	.	.
.	.	.	32%3ffJ 32%3ccc- 32%3fff
=325||	=325||	=325||	=325||
*	*clefF4	*	*
*	*v	*v	*
*k[f#c#g#d#a#]	*k[f#c#g#d#a#]	*k[f#c#g#d#a#]
*	*^	*
2.r	8FFF#L 8FF#	4rEE	8E 8A# 8e
*	*clefG2	*	*
.	8f##X 8ff##X	.	8r
.	[8g#J [8gg#	[8a# [8ee	8r
.	8g#L] 8gg#]	4a#] 4ee]	[4.ddd# [4.aaa# [4.dddd#
.	8f## 8ff##	.	.
.	[8g#J [8gg#	[8a# [8ee	.
=326	=326	=326	=326
*	*	*^	*
2.r	40%3g#L] 40%3gg#]	4.a#] 4.ee]	20%3.r	4ddd#] 4aaa#] 4dddd#]
.	40%3gn 40%3ggn	.	.	.
.	40%3f# 40%3ff#	.	.	.
.	40%3e#X 40%3ee#X	.	20%3a#/	.
.	.	.	.	8ccc# 8aaa# 8cccc#
.	40%3enJ 40%3een	.	.	.
.	16d#LL 16dd#	8eL 8a#	4r	8ff##XL 8eee 8fff##X
.	16dn 16ddn	.	.	.
.	16c# 16cc#	8e 8an	.	8gg# 8eee 8ggg#
.	16cn 16ccn	.	.	.
.	16B 16b	8eJ 8g#X	8r	8ddd#XJ 8ggg# 8dddd#X
.	16A#XJJ 16a#X	.	.	.
*	*v	*v	*v	*
=327	=327	=327
*	*clefF4	*
.	[8qCCCn/ [8qCCn	.
2.r	4.CCC] 4.CC] 4.FF# 4.E	4.ggg# 4.eeee 4.gggg#
*	*clefG2	*
.	8dnL 8e 8a# 8ddn	8aa#L 8eee 8aaa#
.	8c#X 8e 8a# 8cc#X	8aa# 8eee 8aaa#
.	8dJ 8e 8a# 8dd	8aa#J 8eee 8aaa#
=328	=328	=328
2.r	8dnL 8e 8a# 8ddn	8aa#L 8eee 8aaa#
.	8c# 8e 8a# 8cc#	8aa# 8eee 8aaa#
.	8dJ 8e 8a# 8dd	8aa#J 8eee 8aaa#
.	8dL 8e 8a# 8dd	8aa#L 8eee 8aaa#
.	8c# 8e 8a# 8cc#	8aa# 8eee 8aaa#
.	16dJk 16e 16a# 16dd	16aa#Jk 16eee 16aaa#
.	16r	16r
*	*clefF4	*
=329	=329	=329
2.r	16%3B	8r
.	.	4B 4e 4g#
.	16%3E	.
.	16%3FF#	4d# 4g# 4b
.	16%3BBB	.
.	.	8G# 8B 8d#
=330	=330	=330
2.r	16%3r	8G# 8B 8e
.	.	[4B [4d# [4g#
.	16%3E	.
.	16%3FF#	8BL] 8d#] 8g#]
.	.	8G# 8B 8d#
.	16%3BBB	.
.	.	8EJ 8G# 8c#
=331	=331	=331
2.r	16%3r	4G# 4B 4d#
.	16%3E	.
.	.	[8E [8G# [8c#
.	16%3FF#	8EL] 8G#] 8c#]
.	.	8d# 8g# 8b
.	16%3BBB	.
.	.	8EJ 8G# 8c#
=332	=332	=332
2.r	16%3r	4G# 4B 4d#
.	16%3E	.
.	.	[8E [8G# [8c#
.	16%3FF#	8EL] 8G#] 8c#]
.	.	8d# 8g# 8b
.	16%3BBB	.
.	.	8EJ 8G# 8c#
=333	=333	=333
2.r	16%3r	4G# 4B 4d#
.	16%3E	.
.	.	8E 8G# 8c#
.	16%3FF#	4G# 4B 4d#
.	16%3BBB	.
.	.	8E 8G# 8c#
=334	=334	=334
*	*	*^
2.r	2.r	4dd# 4gg# 4bb	8G#L 8B 8d#
.	.	.	8E 8G# 8c#
.	.	8e 8g# 8cc#	8G#J 8B 8d#
.	.	4dd# 4gg# 4bb	8EL 8G# 8c#
.	.	.	8G# 8B 8d#
.	.	8e 8g# 8cc#	8EJ 8G# 8c#
*	*	*v	*v
=335	=335	=335
2.r	16%3An	8r
.	.	4e 4an 4cc#
.	16%3C#	.
.	16%3FF#	4g# 4cc# 4ee
.	16%3BBB	.
.	.	8c# 8e 8g#
=336	=336	=336
2.r	16%3An	8c# 8e 8an
.	.	[4e [4g# [4cc#
.	16%3C#	.
.	16%3FF#	8eL] 8g#] 8cc#]
.	.	8c# 8e 8g#
.	16%3BBB	.
.	.	8AnJ 8c# 8f#
=337	=337	=337
2.r	16%3An	4c# 4e 4g#
.	16%3C#	.
.	.	[8An [8c# [8f#
.	16%3FF#	8AL] 8c#] 8f#]
.	.	8g# 8cc# 8ee
.	16%3BBB	.
.	.	8AJ 8c# 8f#
=338	=338	=338
2.r	16%3An	4c# 4e 4g#
.	16%3C#	.
.	.	[8An [8c# [8f#
.	16%3FF#	8AL] 8c#] 8f#]
.	.	8g# 8cc# 8ee
.	16%3BBB	.
.	.	8AJ 8c# 8f#
=339	=339	=339
2.r	16%3An	4c# 4e 4g#
.	16%3C#	.
.	.	8An 8c# 8f#
.	16%3FF#	4c# 4e 4g#
.	16%3BBB	.
.	.	8A 8c# 8f#
=340	=340	=340
*	*	*^
2.r	2.r	4gg# 4ccc# 4eee	8c#L 8e 8g#
.	.	.	8An 8c# 8f#
.	.	8an 8cc# 8ff#	8c#J 8e 8g#
.	.	4gg# 4ccc# 4eee	8AL 8c# 8f#
.	.	.	8c# 8e 8g#
.	.	8a 8cc# 8ff#	8AJ 8c# 8f#
*	*	*v	*v
=341	=341	=341
2.r	4.BBB 4.BB	8r
.	.	8f#L 8an 8ddn
.	.	[8aJ [8cc# [8ff#
.	4.FF# 4.F#	8aL] 8cc#] 8ff#]
.	.	8f# 8a 8cc#
.	.	8dnJ 8f# 8b
=342	=342	=342
2.r	8Dn 8dn	8cc#L 8ff# 8aan
.	8r	8dn 8f# 8b
.	8r	8cc#J 8ff# 8aa
.	4r	8dL 8f# 8b
.	.	8cc# 8ff# 8aa
.	8r	8dJ 8f# 8b
=343	=343	=343
2.r	16%3EE	8r
.	.	8f#L 8an 8ddn
.	16%3BB	.
.	.	[8aJ [8cc# [8ff#
.	16%3F#	8aL] 8cc#] 8ff#]
.	.	8f# 8a 8cc#
.	16%3c#	.
.	.	8dnJ 8f# 8b
*	*clefG2	*
=344	=344	=344
*	*^	*
2.r	8BL	4B	8cc# 8ff# 8aan
.	8dnJ 8f# 8b	.	8r
.	8raa	4rc	8cc# 8ff# 8aa
.	8e 8g# 8b	.	8r
.	8raa	4rc	8cc# 8ee 8gg#
.	8e 8g# 8b	.	8r
*	*v	*v	*
=345	=345	=345
*	*clefF4	*
2.r	4.CC# 4.C#	8r
.	.	8g#L 8b 8ee
.	.	[8bJ [8dd#X [8gg#
.	4.GG# 4.G#	8bL] 8dd#] 8gg#]
.	.	8g# 8b 8dd#
.	.	8eJ 8g# 8cc#
=346	=346	=346
2.r	8E 8e	8dd#L 8gg# 8bb
.	8r	8e 8g# 8cc#
.	8r	8dd#J 8gg# 8bb
.	4r	8eL 8g# 8cc#
.	.	8dd# 8gg# 8bb
.	8r	8eJ 8g# 8cc#
=347	=347	=347
2.r	16%3FF#	8r
.	.	8g#L 8b 8ee
.	16%3C#	.
.	.	[8bJ [8dd# [8gg#
.	16%3G#	8bL] 8dd#] 8gg#]
.	.	8g# 8b 8dd#
.	16%3d#	.
.	.	8eJ 8g# 8cc#
=348	=348	=348
*	*clefG2	*
*	*^	*
2.r	8c#L	4c#	8dd# 8gg# 8bb
.	8eJ 8g# 8cc#	.	8r
.	8raa	4rc	8dd# 8gg# 8bb
.	8f# 8a# 8cc#	.	8r
.	8raa	4rc	8dd# 8ff# 8aa#
.	16f# 16a# 16cc#	.	8r
*	*clefF4	*	*
.	16DDDn 16DDn	.	.
*	*v	*v	*
=349	=349	=349
2.r	8AAAnL 8AAn	8r
.	8GnJ 8cn 8gn	8cccnL 8eee 8aaan
.	8r	8eeeJ 8gggn 8bbb
.	4r	8ggnL 8ccc 8eee
.	.	8bb 8eee 8ggg
.	8r	8eeJ 8gg 8ccc
=350	=350	=350
2.r	4r	8ggnL 8bb 8eee
.	.	8ccn 8ee 8aan
.	8r	8eeJ 8gg 8bb
.	4r	8gnL 8cc 8ee
.	.	8bJ 8ee 8gg
.	8DDDn 8DDn	8r
=351	=351	=351
2.r	8AAAnL 8AAn	8r
.	8GnJ 8cn 8gn	8ggnL 8cccn 8eee
.	8r	8bbJ 8eee 8gggn
.	4r	8eeL 8gg 8ccc
.	.	8gg 8bb 8eee
.	8r	8ccnJ 8ee 8aan
=352	=352	=352
2.r	4r	8eeL 8ggn 8bb
.	.	8gn 8ccn 8ee
.	8r	8bJ 8ee 8gg
.	4r	8eL 8g 8cc
.	.	8gJ 8b 8ee
.	8E 8e	8r
=353	=353	=353
2.r	8DnL 8dn	8r
.	8Cn 8cn	8eL 8an
.	16r	8gnJ 8b
.	16AAnJk 16An	.
.	4DDn 4D	8gL 8b 8ee
.	.	8eJ 8g 8b
.	8C 8c	8r
=354	=354	=354
2.r	8BB-XL 8B-X	8r
.	8AA-X 8A-X	8dnL 8fn 8b-X
.	16r	8fJ 8a-X 8ccn
.	16FFnJk 16Fn	.
.	4BBB-X 4BB-	8a-L 8cc 8ffn
.	.	8fJ 8a- 8cc
.	8BBBn 8BBn	8r
=355	=355	=355
2.r	4.GGn 4.Gn	8r
.	.	8BL 8dn 8f#X
.	.	8BJ 8d 8f#
.	4r	8BL 8d 8f#
.	.	8d 8f# 8b
.	8r	8dJ 8f# 8b
=356	=356	=356
2.r	2.r	8dnL 8f# 8b
.	.	8f# 8b 8ddn
.	.	8f#J 8b 8dd
.	.	8g#L 8b 8dd
.	.	8b 8dd 8ff#
.	.	8bJ 8dd 8ff#
=357	=357	=357
2.r	16f#LL	8r
.	16B	.
.	16C#	8ff#L
.	16B	.
.	16C#	8a#J
.	16C#JJ	.
.	16CC#XLL	[4.c##X
.	16C#	.
.	16C#	.
.	16B	.
.	16f#	.
.	16BJJ	.
=358	=358	=358
2.r	16e#XLL	4.c##]
.	16B	.
.	16C#	.
.	16B	.
.	16C#	.
.	16C#JJ	.
.	16CC#LL	4.d#
.	16C#	.
.	16C#	.
.	16B	.
.	16e#	.
.	16BJJ	.
=359	=359	=359
2.r	8GGnL 8Fn	8d-XL 8fn 8b
.	8GG 8F	8d- 8f 8a#
.	[8GGJ [8F	[8d-J [8f [8b
.	8GGL] 8F]	8d-L] 8f] 8b]
.	8GG 8F	8d- 8f 8a#
.	[8GGJ [8F	[8d-J [8f [8b
=360	=360	=360
2.r	8GGL] 8F]	8d-L] 8f] 8b]
.	8GGn 8Fn	8d-X 8fn 8a#
.	[8GGJ [8F	[8d-J [8f [8b
.	8GGL] 8F]	8d-L] 8f] 8b]
.	8GG 8F	8d- 8f 8a#
.	8GGJ 8F	8d-J 8f 8b
=361	=361	=361
2.r	16e#XLL	8r
.	16B	.
.	16C#	8bL
.	16B	.
.	16C#	8d#XJ
.	16C#JJ	.
.	16CC#LL	[4.F##X
.	16C#	.
.	16C#	.
.	16B	.
.	16e#	.
.	16BJJ	.
=362	=362	=362
2.r	16e#XLL	4.F##]
.	16B	.
.	16C#	.
.	16B	.
.	16C#	.
.	16C#JJ	.
.	16CC#LL	4.G#
.	16C#	.
.	16C#	.
.	16B	.
.	16e#	.
.	16BJJ	.
=363	=363	=363
2.r	8AAnL 8Gn	8c#XL 8e#X 8b
.	8AA 8G	8c# 8e# 8a#X
.	[8AAJ [8G	[8c#J [8e# [8b
.	8AAL] 8G]	8c#L] 8e#] 8b]
.	8AA 8G	8c# 8e# 8a#
.	[8AAJ [8G	[8c#J [8e# [8b
=364	=364	=364
2.r	8AAL] 8G]	8c#L] 8e#] 8b]
.	8AAn 8Gn	8c# 8e#X 8an
.	8AAJ 8Gn	8c#J 8e# 8g#X
.	8FFnL 8E-X	8AnL 8c# 8gn
.	8FF 8E-	8A 8c# 8g-X
.	8FFJ 8E-	8AJ 8c# 8fn
=365	=365	=365
2.r	8DDn 8Cn	8F#X 8cn 8en
.	16f#LL	8ccnL
.	16cn	.
.	16Dn	8eJ
.	16DJJ	.
.	16DDLL	[4.G#X
.	16D	.
.	16D	.
.	16c	.
.	16f#	.
.	16cJJ	.
=366	=366	=366
2.r	16f#LL	4.G#]
.	16cn	.
.	16Dn	.
.	16c	.
.	16D	.
.	16DJJ	.
.	16DDnLL	4.An
.	16D	.
.	16D	.
.	16c	.
.	16f#	.
.	16cJJ	.
=367||	=367||	=367||
*k[b-e-a-]	*k[b-e-a-]	*k[b-e-a-]
2.r	8AA-L 8G-X	8cL 8en 8b-
.	8AA-X 8G-	8c 8e 8an
.	[8AA-J [8G-	[8cJ [8e [8b-
.	8AA-L] 8G-]	8cL] 8e] 8b-]
.	8AA- 8G-	8c 8e 8a
.	[8AA-J [8G-	[8cJ [8e [8b-
=368	=368	=368
2.r	8AA-L] 8G-]	8cL] 8e] 8b-]
.	8AA-X 8G-X	8c 8en 8an
.	8AA-J 8G-	8cJ 8e 8b-
.	8DL 8c	8a-XL 8cc 8ff#X
.	8D 8c	8a- 8cc 8ee#X
.	8DJ 8c	8a-J 8cc 8ff#
=369	=369	=369
2.r	8AA-L 8G-X	8cL 8en 8b-
.	8AA-X 8G-	8c 8e 8an
.	[8AA-J [8G-	[8cJ [8e [8b-
.	8AA-L] 8G-]	8cL] 8e] 8b-]
.	8AA- 8G-	8c 8e 8a
.	[8AA-J [8G-	[8cJ [8e [8b-
=370	=370	=370
2.r	8AA-L] 8G-]	8cL] 8e] 8b-]
.	8AA-X 8G-X	8c 8en 8an
.	8AA-J 8G-	8cJ 8e 8b-
.	8DL 8c	8a-XL 8cc 8ff#X
.	8D 8c	8a- 8cc 8ee#X
.	8DJ 8c	8a-J 8cc 8ff#
=371	=371	=371
2.r	8BB-L 8A-	8dL 8f#X 8cc
.	8BB-X 8A-	8d 8f# 8bn
.	[8BB-J [8A-	[8dJ [8f# [8cc
.	8BB-L] 8A-]	8dL] 8f#] 8cc]
.	8BB- 8A-	8d 8f# 8b
.	[8BB-J [8A-	[8dJ [8f# [8cc
=372	=372	=372
2.r	8BB-L] 8A-]	8dL] 8f#] 8cc]
.	8BB-X 8A-	8d 8f#X 8bn
.	8BB-J 8A-	8dJ 8f# 8cc
.	8EnL 8d	8b-XL 8dd 8gg#X
.	8E 8d	8b- 8dd 8ff##X
.	8EJ 8d	8b-J 8dd 8gg#
=373	=373	=373
*	*^	*
2.r	8A-L 8e-X	[2.C	8gnL 8cc 8ee-X
.	8A- 8e-	.	8g 8cc 8dd
.	[8A-J [8e-	.	[8gJ [8cc [8ee-
.	8A-L] 8e-]	.	8gL] 8cc] 8ee-]
.	8A- 8e-	.	8g 8cc 8dd
.	[8A-J [8e-	.	[8gJ [8cc [8ee-
=374	=374	=374	=374
2.r	8A-L] 8e-]	2.C]	8gL] 8cc] 8ee-]
.	8A- 8e-	.	8g 8cc 8dd
.	8A-J 8e-	.	8gJ 8cc 8ee-
.	8A-L 8e- 8a-	.	8ee-L 8gg 8ccc
.	8A- 8e- 8a-	.	8ee- 8gg 8bbn
.	8A-J 8e- 8a-	.	8ee-J 8gg 8ccc
*	*v	*v	*
=375	=375	=375
2.r	8C 8A- 8e-	8r
.	16e-LL	8ccL 8ee- 8gg
.	16A-	.
.	16C	8a-J 8cc 8ff
.	16CJJ	.
.	16CCLL	[4.gg [4.ccc [4.eee-
.	16C	.
.	16C	.
.	16A-	.
.	16e-	.
.	16A-JJ	.
=376	=376	=376
2.r	16a-LL	4.gg] 4.ccc] 4.eee-]
.	16e-	.
.	16A-	.
.	16e-	.
.	16A-	.
.	16CJJ	.
.	16CCLL	4.gg 4.ccc 4.eee-
.	16C	.
.	16A-	.
.	16e-	.
.	16c 16a-	.
.	16e-JJ	.
=377	=377	=377
.	[8qFF/ [8qF	.
*	*^	*
2.r	4.FF] 4.F] 4.c 4.e- 4.g 4.an	4rEE	4.ee- [4.gg [4.ccc [4.eee-
.	.	8rEE	.
*	*clefG2	*	*
.	8c	16cLL	4gg] 4ccc] 4eee-]
.	.	16g	.
.	8raa	16ee-	.
.	.	16anJJ	.
.	8raa	8rc	8cc 8gg [8aan [8ccc
=378	=378	=378	=378
2.r	8g	16gLL	4aa] 4ccc]
.	.	16an	.
.	8raa	16ee-	.
.	.	16ccJJ	.
.	8raa	8rc	[8gg [8aan
.	8F	16FLL	4gg] 4aa]
.	.	16c	.
.	8raa	16a	.
.	.	16e-JJ	.
.	8raa	8rc	8g 8cc [8ee- [8gg
=379	=379	=379	=379
*	*	*	*^
2.r	8c	16cLL	4ee-] 4gg]	4rc
.	.	16e-	.	.
.	8raa	16an	.	.
.	.	16gJJ	.	.
.	8raa	8rc	[8cc [8ee-	8rc
*	*clefF4	*	*	*
.	8BB-	16BB-LL	4cc] 4ee-]	4rc
.	.	16F	.	.
.	8rc	16e-	.	.
.	.	16cJJ	.	.
.	8rc	8rEE	16ccLL	8g 8an
.	.	.	16bnJJ	.
=380	=380	=380	=380	=380
2.r	8F	16FLL	4raa	4rc
.	.	16c	.	.
.	8rc	16g	.	.
.	.	16e-JJ	.	.
.	8rc	8rEE	16ccLL	8an
.	.	.	16bnJJ	.
.	8BB-X	16BB-LL	4raa	4rc
.	.	16F	.	.
.	8rc	16e-	.	.
.	.	16cJJ	.	.
.	8rc	8rEE	16ccLL	8g 8a
.	.	.	16bnJJ	.
*	*v	*v	*	*
=381||	=381||	=381||	=381||
*	*	*	*^
2.r	[2.BB- [2.A-X	4raa	8ccL	4.d\ 4.a-X
.	.	.	8bn	.
.	.	8raa	8ccJ	.
.	.	[4.gg	8ccL	4.d\ 4.a-
.	.	.	8b	.
.	.	.	[8ccJ	.
=382	=382	=382	=382	=382
2.r	4.BB-] 4.A-]	4gg]	8ccL]	4.d\
.	.	.	16cc-XL	.
.	.	.	16b-	.
.	.	8ff	16an	.
.	.	.	16a-XJJ	.
.	4.BB-X 4.A-	8bnL	16gLL	8d\L
.	.	.	16g-X	.
.	.	8ccn	16f	8d-X\
.	.	.	16f-X	.
.	.	8a-J 8cc 8ggn	16e-	8c\J
.	.	.	16dnJJ	.
*	*	*v	*v	*v
=383	=383	=383
.	[8qFF-X/ [8qBB- [8qA-	.
*	*	*^
2.r	8FF-] 8BB-] 8A-] 8d 8a- 8dd	[2.b-X [2.aa- [2.bb-X	8rc
.	16r	.	[4g-X
.	16dd	.	.
.	16a-LL	.	.
.	16dJJ	.	.
.	16A-LL	.	4g-]
.	16BB-JJ	.	.
.	16FF-X	.	.
.	16r	.	.
.	8r	.	8gn
=384	=384	=384	=384
2.r	8r	2.b-] 2.aa-] 2.bb-]	8rc
.	16r	.	[4g-X
.	16dd	.	.
.	16a-LL	.	.
.	16dJJ	.	.
.	16A-LL	.	4g-]
.	16BB-JJ	.	.
.	16FF-X	.	.
.	16r	.	.
.	8r	.	8gn
=385	=385	=385	=385
*	*	*	*^
2.r	[2.BB- [2.A-	4raa	8f#XL 8cc	4.d\
.	.	.	8g 8bn	.
.	.	8raa	8a-J 8cc	.
.	.	[4.gg	8ccL	4.d\ 4.a-
.	.	.	8b	.
.	.	.	[8ccJ	.
=386	=386	=386	=386	=386
2.r	4.BB-] 4.A-]	4gg]	8ccL]	4.d\
.	.	.	16cc-XL	.
.	.	.	16b-	.
.	.	8ffn	16an	.
.	.	.	16a-XJJ	.
.	4.BB-X 4.A-	8bnL	16gLL	8d\L
.	.	.	16g-X	.
.	.	8ccn	16f	8d-X\
.	.	.	16f-X	.
.	.	8a-J 8cc 8ggn	16e-	8c\J
.	.	.	16dnJJ	.
*	*	*v	*v	*v
=387	=387	=387
.	[8qFF-X/ [8qBB- [8qA-	.
*	*	*^
2.r	8FF-] 8BB-] 8A-] 8d 8a- 8dd	[2.cc [2.aa- [2.ccc	8rc
.	16r	.	[4g-X
.	16dd	.	.
.	16a-LL	.	.
.	16dJJ	.	.
.	16A-LL	.	4g-]
.	16BB-JJ	.	.
.	16FF-X	.	.
.	16r	.	.
.	8r	.	8gn
=388	=388	=388	=388
2.r	8r	2.cc] 2.aa-] 2.ccc]	8rc
.	16r	.	[4g-X
.	16dd	.	.
.	16a-LL	.	.
.	16dJJ	.	.
.	16A-LL	.	4g-]
.	16BB-JJ	.	.
.	16FF-X	.	.
.	16r	.	.
.	8r	.	8gn
=389	=389	=389	=389
*	*	*	*^
2.r	[2.EE- [2.E-	4raa	8rc	8d-X\ 8g
.	.	.	8eenL	4g\ 4dd-X
.	.	8raa	8ffJ	.
.	.	[4.ccc	8ffL	4.g\ 4.dd-
.	.	.	8ee	.
.	.	.	[8ffJ	.
=390	=390	=390	=390	=390
2.r	4.EE-] 4.E-]	4ccc]	8ffL]	4.g\
.	.	.	16ff-XL	.
.	.	.	16ee-	.
.	.	8bb-	16ddn	.
.	.	.	16dd-XJJ	.
.	4.E-X 4.d-X	8eenL	16ccLL	8g\L
.	.	.	16cc-X	.
.	.	8ffn	16b-	8g-X\
.	.	.	16b--	.
.	.	8dd-J 8ff 8cccn	16a-	8f\J
.	.	.	16gnJJ	.
*	*	*	*v	*v
=391	=391	=391	=391
2.r	8AA- 8E- 8d-X 8g 8dd-X	16fffLL	[4.ff
.	.	[16bbnJJ	.
.	16r	4bb_	.
.	16dd-	.	.
.	16gLL	.	.
.	16d-JJ	.	.
.	16E-LL	4.bb_	8.ff]
.	16AA-JJ	.	.
.	8r	.	.
.	.	.	16ff-X
.	8r	.	16ee-LL
.	.	.	16eenJJ
=392	=392	=392	=392
2.r	16ffLL	16bbLL]	[4.ff
.	16dd-X	[16bbnJJ	.
.	16g	4bb_	.
.	16d-X	.	.
.	16E-	.	.
.	16AA-JJ	.	.
.	4r	4.bb]	40%3ffL]
.	.	.	40%3ff-X
.	.	.	40%3ee-
.	.	.	40%3ddn
.	8r	.	.
.	.	.	40%3dd-XJ
=393	=393	=393	=393
2.r	16ccLL	16cccLL	[4.cc
.	16g#X	[16ff#XJJ	.
.	16dn	4ff#_	.
.	16EnJJ	.	.
.	8EEn	.	.
.	4r	4.ff#]	40%3ccL]
.	.	.	40%3bn
.	.	.	40%3b-X
.	.	.	40%3an
.	8r	.	.
.	.	.	40%3a-XJ
=394	=394	=394	=394
2.r	16gLL	16ggLL	4.g
.	16d	[16bnJJ	.
.	16A-	4b_	.
.	16BB-X	.	.
.	16BBB-X	.	.
.	16BB-JJ	.	.
.	16A-LL	4b]	4rc
.	16dJJ	.	.
.	4g	.	.
.	.	8cc	8rc
=395	=395	=395	=395
*	*	*	*^
2.r	[2.EE- [2.BB- [2.A-	4raa	8ccL	4.d\ 4.a-
.	.	.	8bn	.
.	.	8raa	8ccJ	.
.	.	[4.gg	8ccL	4.d\ 4.a-
.	.	.	8b	.
.	.	.	[8ccJ	.
=396	=396	=396	=396	=396
2.r	4.EE-] 4.BB-] 4.A-]	4gg]	8ccL]	4.d\
.	.	.	16cc-XL	.
.	.	.	16b-	.
.	.	8ff	16an	.
.	.	.	16a-XJJ	.
.	4.BB-X 4.A-	8bnL	16gLL	8d\L
.	.	.	16g-X	.
.	.	8ccn	16f	8d-X\
.	.	.	16f-X	.
.	.	8a-J 8cc 8ggn	16e-	8c\J
.	.	.	16dnJJ	.
*	*	*v	*v	*v
=397	=397	=397
.	[8qEE-/ [8qBB- [8qA-	.
*	*	*^
2.r	8EE-] 8BB-] 8A-] 8d 8a- 8dd	[2.cc [2.aa- [2.ccc	8rc
.	16r	.	[4g-X
.	16dd	.	.
.	16a-LL	.	.
.	16dJJ	.	.
.	16A-LL	.	4g-]
.	16BB-JJ	.	.
.	16EE-	.	.
.	16r	.	.
.	8r	.	8gn
=398	=398	=398	=398
2.r	8r	2.cc] 2.aa-] 2.ccc]	8rc
.	16r	.	[4g-X
.	16dd	.	.
.	16a-LL	.	.
.	16dJJ	.	.
.	16A-LL	.	4g-]
.	16BB-JJ	.	.
.	16EE-	.	.
.	16r	.	.
.	8r	.	8gn
=399	=399	=399	=399
*	*	*	*^
2.r	[2.EE- [2.BB- [2.A-	4raa	8f#XL 8cc	4.d\
.	.	.	8g 8bn	.
.	.	8raa	8a-J 8cc	.
.	.	[4.ccc	8ggL	4.a-\ 4.dd
.	.	.	8ff#X	.
.	.	.	[8ggJ	.
=400	=400	=400	=400	=400
2.r	4.EE-] 4.BB-] 4.A-]	4ccc]	40%3ggL]	4.d\ 4.a-
.	.	.	40%3gg-X	.
.	.	.	40%3ff	.
.	.	.	40%3een	.
.	.	8bb-	.	.
.	.	.	40%3ee-XJ	.
.	4.EE-X 4.BB- 4.A-	8eenL	16ddLL	4.d\ 4.a-
.	.	.	16dd-X	.
.	.	8ff	16cc	.
.	.	.	16cc-X	.
.	.	8cccnJ	24b-	.
.	.	.	24an	.
.	.	.	24a-XJJ	.
*	*	*v	*v	*v
=401||	=401||	=401||
*M2/4	*M2/4	*M2/4
2r	16CLL	8A-L 8e-X 8gn
.	16EE-JJ	.
.	8r	16r
.	.	16f#XJk
.	16EE-LL	8A-L 8e- 8g
.	16EEE-JJ	.
.	8r	16r
.	.	16f#Jk
=402	=402	=402
2r	16EE-LL	8A-L 8e- 8g
.	16CJJ	.
.	8r	16r
.	.	16gJk
.	4F-X	4c 4e- 4a-
=403	=403	=403
2r	16CLL	8A-L 8e- 8g
.	16EE-JJ	.
.	8r	16r
.	.	16f#XJk
.	16EE-LL	8A-L 8e- 8g
.	16EEE-JJ	.
.	8r	16r
.	.	16f#Jk
=404	=404	=404
2r	16EE-LL	8A-L 8e- 8g
.	16CJJ	.
.	8r	16r
.	.	16gJk
.	4F-X	4c 4e- 4a-
=405	=405	=405
2r	16G-XLL	8c-XL 8e- 8g-X 8b-
.	16C-XJJ	.
.	8r	16r
.	.	16anJk
.	16EE-LL	8c-L 8e- 8g- 8b-
.	16EEE-JJ	.
.	8r	16r
.	.	16aJk
=406	=406	=406
2r	16C-XLL	8c-XL 8e- 8g-X 8b-
.	16G-XJJ	.
.	8r	16r
.	.	16b-Jk
.	4A--	4e- 4g- 4cc-X
=407	=407	=407
2r	16G-XLL	8c-XL 8e- 8g-X 8b-
.	16C-XJJ	.
.	8r	16r
.	.	16anJk
.	16EE-LL	8c-L 8e- 8g- 8b-
.	16EEE-JJ	.
.	8r	16r
.	.	16aJk
=408	=408	=408
2r	16C-XLL	8c-XL 8e- 8g-X 8b-
.	16G-XJJ	.
.	8r	16r
.	.	16b-Jk
.	4A--	4e- 4g- 4cc-X
=409	=409	=409
2r	16A-XLL 16e-	12gnL 12ccn 12ee- 12ggn
.	16CnJJ	.
.	.	12f#X 12cc 12ee- 12ff#X
.	8r	.
.	.	12gJ 12cc 12ee- 12gg
.	16E-LL	12gL 12cc 12ee- 12gg
.	16EE-JJ	.
.	.	12f# 12cc 12ee- 12ff#
.	8r	.
.	.	12gJ 12cc 12ee- 12gg
=410	=410	=410
2r	16A-LL 16e-	12gL 12cc 12ee- 12gg
.	16CJJ	.
.	.	12f#X 12cc 12ee- 12ff#X
.	8r	.
.	.	12gJ 12cc 12ee- 12gg
.	4F-X 4f-X	12a-L 12cc 12ee- 12aa-
.	.	12g 12cc 12ee- 12gg
.	.	12a-J 12cc 12ee- 12aa-
=411	=411	=411
2r	16A-LL 16e-	12gL 12cc 12ee- 12gg
.	16CJJ	.
.	.	12f#X 12cc 12ee- 12ff#X
.	8r	.
.	.	12gJ 12cc 12ee- 12gg
.	16E-LL	12gL 12cc 12ee- 12gg
.	16EE-JJ	.
.	.	12f# 12cc 12ee- 12ff#
.	8r	.
.	.	12gJ 12cc 12ee- 12gg
=412	=412	=412
2r	16A-LL 16e-	12gL 12cc 12ee- 12gg
.	16CJJ	.
.	.	12f#X 12cc 12ee- 12ff#X
.	8r	.
.	.	12gJ 12cc 12ee- 12gg
.	4F-X 4f-X	12a-L 12cc 12ee- 12aa-
.	.	12g 12cc 12ee- 12gg
.	.	12a-J 12cc 12ee- 12aa-
=413	=413	=413
2r	16c-XLL 16g-X	12b-L 12ee- 12gg-X 12bb-
.	16E-JJ	.
.	.	12an 12ee- 12gg- 12aan
.	8r	.
.	.	12b-J 12ee- 12gg- 12bb-
.	16C-XLL 16G-X	12b-L 12ee- 12gg- 12bb-
.	16EE-JJ	.
.	.	12a 12ee- 12gg- 12aa
.	8r	.
.	.	12b-J 12ee- 12gg- 12bb-
=414	=414	=414
2r	16c-XLL 16g-X	12b-L 12ee- 12gg-X 12bb-
.	16E-JJ	.
.	.	12an 12ee- 12gg- 12aan
.	8r	.
.	.	12b-J 12ee- 12gg- 12bb-
.	4A-- 4a--	12cc-XL 12ee- 12gg- 12ccc-X
.	.	12b- 12ee- 12gg- 12bb-
.	.	12cc-J 12ee- 12gg- 12ccc-
=415	=415	=415
2r	16c-XLL 16g-X	12b-L 12ee- 12gg-X 12bb-
.	16E-JJ	.
.	.	12an 12ee- 12gg- 12aan
.	8r	.
.	.	12b-J 12ee- 12gg- 12bb-
.	16C-XLL 16G-X	12b-L 12ee- 12gg- 12bb-
.	16EE-JJ	.
.	.	12a 12ee- 12gg- 12aa
.	8r	.
.	.	12b-J 12ee- 12gg- 12bb-
=416	=416	=416
2r	16c-XLL 16g-X	12b-L 12ee- 12gg-X 12bb-
.	16E-JJ	.
.	.	12an 12ee- 12gg- 12aan
.	8r	.
.	.	12b-J 12ee- 12gg- 12bb-
.	4A-- 4a--	12cc-XL 12ee- 12gg- 12ccc-X
.	.	12b- 12ee- 12gg- 12bb-
.	.	12cc-J 12ee- 12gg- 12ccc-
=417	=417	=417
*M6/8	*M6/8	*M6/8
.	[8qEEE-/ [8qEE-	.
2.r	4.EEE-] 4.EE-] 4.Cn 4.A-X	8ggnL 8cccn 8eee- 8gggn
.	.	8ff#X 8ccc 8eee- 8fff#X
.	.	8ggJ 8ccc 8eee- 8ggg
*	*clefG2	*
.	4.c 4.e- 4.gn	8cccL 8eee- 8aaa-X
.	.	8eee-J 8ggg 8cccc
.	.	8r
=418	=418	=418
2.r	4.A- 4.c 4.fn	8cccL 8eee- 8ggg
.	.	8aa-J 8ccc 8fffn
.	.	8r
.	[4.g [4.cc [4.ee-	8r
.	.	8cccL 8eee- 8aaa-
.	.	8eee-J 8ggg 8cccc
=419	=419	=419
2.r	2.g_ 2.cc_ 2.ee-_	8r
.	.	8cccL 8eee- 8ggg
.	.	8aa-J 8ccc 8fff
.	.	8r
.	.	8cccL 8eee- 8aaa-
.	.	8eee-J 8ggg 8cccc
=420	=420	=420
2.r	4.g] 4.cc] 4.ee-]	8r
.	.	8cccL 8eee- 8ggg
.	.	8aa-J 8ccc 8fff
.	4.g 4.cc 4.ee-	4r
.	.	8r
=421	=421	=421
*	*clefF4	*
.	[8qEEE-/ [8qEE-	.
2.r	2.EEE-] 2.EE-] 2.C 2.F 2.An 2.c	4f 4an 4cc 4ee-
.	.	8r
.	.	8r
.	.	4aan 4ccc 4fff
*	*clefG2	*
=422	=422	=422
2.r	16e-LL	4ggg 4cccc 4eeee-
.	16g	.
.	16an	.
.	16cc	.
.	16a	8r
.	16gJJ	.
.	16aLL	8r
.	16ccJJ	.
.	8r	4aan 4ccc 4fff
.	8r	.
=423	=423	=423
2.r	16gLL	4ggg 4cccc 4eeee-
.	16an	.
.	16cc	.
.	16ee-	.
.	16cc	8r
.	16aJJ	.
.	16ccLL	8r
.	16ee-JJ	.
.	8r	4aan 4ccc 4fff
.	8r	.
=424	=424	=424
2.r	16anLL	4ggg 4cccc 4eeee-
.	16cc	.
.	16ee-	.
.	16gg	.
.	16ee-	8r
.	16ccJJ	.
.	16ee-LL	8r
.	16ggJJ	.
.	8r	4aan 4ccc 4fff
.	8r	.
*	*clefF4	*
=425	=425	=425
.	[8qEEE-/ [8qEE-	.
2.r	4.EEE-] 4.EE-] 4.D-X 4.A-X	8cccL 8fff 8aaa-X 8cccc
.	.	8bbn 8fff 8aaa- 8bbbn
.	.	8cccJ 8fff 8aaa- 8cccc
*	*clefG2	*
.	4.f 4.a- 4.cc	8fffL 8aaa- 8dddd-X
.	.	8aaa-J 8cccc 8ffff
.	.	8r
=426	=426	=426
2.r	4.d-X 4.f 4.b-	8fffL 8aaa- 8cccc
.	.	8ddd-XJ 8fff 8bbb-
.	.	8r
.	[4.cc [4.ff [4.aa-	8r
.	.	8fffL 8aaa- 8dddd-X
.	.	8aaa-J 8cccc 8ffff
=427	=427	=427
2.r	2.cc_ 2.ff_ 2.aa-_	8r
.	.	8fffL 8aaa- 8cccc
.	.	8ddd-XJ 8fff 8bbb-
.	.	8r
.	.	8fffL 8aaa- 8dddd-X
.	.	8aaa-J 8cccc 8ffff
=428	=428	=428
2.r	4.cc] 4.ff] 4.aa-]	8r
.	.	8fffL 8aaa- 8cccc
.	.	8ddd-XJ 8fff 8bbb-
.	4.cc 4.ff 4.aa-	4r
.	.	8r
*	*clefF4	*
=429	=429	=429
.	[8qEEE-/ [8qEE- [8qBB-	.
2.r	2.EEE-] 2.EE-] 2.BB-] 2.A- 2.c 2.dn 2.f 2.a-	4cc 4ddn 4ff 4aa-
.	.	8r
.	.	8r
.	.	4ddd 4fff 4bbb-
=430	=430	=430
*	*clefG2	*
2.r	16ccLL	4cccc 4ffff 4aaaa-
.	16dd	.
.	16ff	.
.	16aa-	.
.	16ff	8r
.	16ddJJ	.
.	16ffLL	8r
.	16aa-JJ	.
.	8r	4ddd 4fff 4bbb-
.	8r	.
=431	=431	=431
2.r	16a-LL	4cccc 4ffff 4aaaa-
.	16cc	.
.	16dd	.
.	16ff	.
.	16dd	8r
.	16ccJJ	.
.	16ddLL	8r
.	16ffJJ	.
.	8r	4ddd 4fff 4bbb-
.	8r	.
=432	=432	=432
*M3/4	*M3/4	*M3/4
2.r	12fL 12a- 12cc 12dd	4cccc 4ffff 4aaaa-
.	12f 12a- 12cc 12dd	.
.	12fJ 12a- 12cc 12dd	.
.	12fL 12a- 12cc 12dd	4r
.	12f 12a- 12cc 12dd	.
.	12fJ 12a- 12cc 12dd	.
.	12fL 12a- 12cc 12dd	4ddd 4fff 4bbb-
.	12f 12a- 12cc 12dd	.
.	12fJ 12a- 12cc 12dd	.
=433	=433	=433
[8qEEE-/ [8qEE-	.	.
2.EEE-_ 2.EE-_ [2.BB- [2.A-	12dL 12a- 12cc	4r
.	12d 12a- 12cc	.
.	12dJ 12a- 12cc	.
.	12dL 12a- 12cc	2ccc
.	12d 12a- 12cc	.
.	12dJ 12a- 12cc	.
.	12dL 12a- 12cc	.
.	12d 12a- 12cc	.
.	12dJ 12a- 12cc	.
=434	=434	=434
*	*^	*
.	.	[8qen\	.
*	*	*	*^
2.EEE-] 2.EE-] 2.BB-] 2.A-]	12dL 12a- 12cc	2.e]	6raa	2.gg
.	12d 12a- 12cc	.	.	.
.	12dJ 12a- 12cc	.	12ggg	.
.	12dL 12a- 12cc	.	4bbb-	.
.	12d 12a- 12cc	.	.	.
.	12dJ 12a- 12cc	.	.	.
.	12dL 12a- 12cc	.	4ggg	.
.	12d 12a- 12cc	.	.	.
.	12dJ 12a- 12cc	.	.	.
*	*v	*v	*	*
*	*	*v	*v
=435	=435	=435
[8qEEE-/ [8qEE-	.	.
2.EEE-_ 2.EE-_ [2.BB- [2.A-	12dL 12a- 12cc	4r
.	12d 12a- 12cc	.
.	12dJ 12a- 12cc	.
.	12dL 12a- 12cc	2ccc
.	12d 12a- 12cc	.
.	12dJ 12a- 12cc	.
.	12dL 12a- 12cc	.
.	12d 12a- 12cc	.
.	12dJ 12a- 12cc	.
=436	=436	=436
*	*^	*
.	.	[8qen\	.
*	*	*	*^
2.EEE-] 2.EE-] 2.BB-] 2.A-]	12dL 12a- 12cc	2.e]	6raa	2.gg
.	12d 12a- 12cc	.	.	.
.	12dJ 12a- 12cc	.	12ggg	.
.	12dL 12a- 12cc	.	4bbb-	.
.	12d 12a- 12cc	.	.	.
.	12dJ 12a- 12cc	.	.	.
.	12dL 12a- 12cc	.	4ggg	.
.	12d 12a- 12cc	.	.	.
.	12dJ 12a- 12cc	.	.	.
*	*v	*v	*	*
=437	=437	=437	=437
[8qEEE-/ [8qEE-	.	.	.
2.EEE-] 2.EE-] 2.C 2.G	16cLL 16e-X 16g 16b-	4raa	12rc
.	16c 16e- 16g 16b-	.	.
.	.	.	12ccL 12ee- 12gg
.	16c 16e- 16g 16b-	.	.
.	.	.	12ccJ 12ee- 12gg
.	16cJJ 16e- 16g 16b-	.	.
.	16cLL 16e- 16g 16b-	2ccc	12ccL 12ee- 12gg
.	16c 16e- 16g 16b-	.	.
.	.	.	12cc 12ee- 12gg
.	16c 16e- 16g 16b-	.	.
.	.	.	12ccJ 12ee- 12gg
.	16cJJ 16e- 16g 16b-	.	.
.	16cLL 16e- 16g 16b-	.	12ccL 12ee- 12gg
.	16c 16e- 16g 16b-	.	.
.	.	.	12cc 12ee- 12gg
.	16c 16e- 16g 16b-	.	.
.	.	.	12ccJ 12ee- 12gg
.	16cJJ 16e- 16g 16b-	.	.
=438	=438	=438	=438
[8qEEE-/ [8qEE-	.	.	.
2.EEE-] 2.EE-] 2.C 2.G-X	16cLL 16e- 16g-X 16b-	4raa	12rc
.	16c 16e- 16g- 16b-	.	.
.	.	.	12ee-L 12gg-X 12bb-
.	16c 16e- 16g- 16b-	.	.
.	.	.	12ee-J 12gg- 12bb-
.	16cJJ 16e- 16g- 16b-	.	.
.	16cLL 16e- 16g- 16b-	2eee-	12ee-L 12gg- 12bb-
.	16c 16e- 16g- 16b-	.	.
.	.	.	12ee- 12gg- 12bb-
.	16c 16e- 16g- 16b-	.	.
.	.	.	12ee-J 12gg- 12bb-
.	16cJJ 16e- 16g- 16b-	.	.
.	16cLL 16e- 16g- 16b-	.	12ee-L 12gg- 12bb-
.	16c 16e- 16g- 16b-	.	.
.	.	.	12ee- 12gg- 12bb-
.	16c 16e- 16g- 16b-	.	.
.	.	.	12ee-J 12gg- 12bb-
.	16cJJ 16e- 16g- 16b-	.	.
=439	=439	=439	=439
*^	*	*	*
.	[8qEEE-X\ [8qEE-X	.	.	.
[2G-X	2.EEE-] 2.EE-] 2.C	16cLL 16en 16g-X 16b-	6raa	12rc
.	.	16c 16e 16g- 16b-	.	.
.	.	.	.	12eenL 12aa- 12ccc
.	.	16c 16e 16g- 16b-	.	.
.	.	.	12aaa-	12aa-J 12ccc 12eeen
.	.	16cJJ 16e 16g- 16b-	.	.
.	.	16cLL 16e 16g- 16b-	[4eee	12eeL 12aa- 12ccc
.	.	16c 16e 16g- 16b-	.	.
.	.	.	.	12ee 12aa- 12ccc
.	.	16c 16e 16g- 16b-	.	.
.	.	.	.	12eeJ 12aa- 12ccc
.	.	16cJJ 16e 16g- 16b-	.	.
8.G-L]	.	16cLL 16e 16g- 16b-	6eee]	12eeL 12aa- 12ccc
.	.	16c 16e 16g- 16b-	.	.
.	.	.	.	12ee 12aa- 12ccc
.	.	16c 16e 16g- 16b-	.	.
.	.	.	12fff	12ffJ 12aa- 12ccc
16FJk	.	16cJJ 16e-X 16f 16a-	.	.
*v	*v	*	*v	*v
=440	=440	=440
[8qEEE-/ [8qEE-	.	.
2.EEE-] 2.EE-] 2.BB- 2.A-	12r	12ff#XL 12ccc 12fff#X
.	12dL 12a- 12cc	12ccc 12fff# 12cccc
.	12a-J 12dd 12ff#X	12cccJ 12fff# 12cccc
.	12a-L 12dd 12ff#	12cccL 12fff# 12cccc
.	12d 12a- 12bn	12bbn 12fff# 12bbbn
.	12dJ 12a- 12cc	12cccJ 12fff# 12cccc
.	12a-L 12cc 12dd 12ff#	12cccL 12fff# 12cccc
.	12a- 12b 12dd 12ff#	12bb 12fff# 12bbb
.	12a-J 12cc 12dd 12ff#	12cccJ 12fff# 12cccc
*	*clefF4	*clefF4
=441	=441	=441
*M6/8	*M6/8	*M6/8
2.r	4EE-	8r
.	.	8E-L 8G-X 8c-X
.	8C-X	8G-J 8B- 8e-
.	8EE-L	8r
.	8EE-	8E-L 8G- 8B-
.	8GGGJ	8C-XJ 8E- 8A-
=442	=442	=442
*	*	*clefG2
2.r	8EE-L	8r
.	8G-X	8B-L 8d-X 8g-X
.	8AA-J	8d-J 8f 8b-
.	8EE-L	8r
.	8EE-	8B-L 8d- 8f
.	8EEE-J	8G-XJ 8B- 8e-
=443	=443	=443
2.r	8EE-L	8r
.	8F-X	8d-XL 8f-X 8b--
.	8BB--J	8f-J 8a- 8dd-X
.	8EE-L	8r
.	8EE-	8d-L 8f- 8a-
.	8EEE-J	8B--J 8d- 8g-X
=444	=444	=444
2.r	16EEE-LL 16EE-	8r
.	16BBB-XJJ 16BB-X	.
.	8r	8gnL 8b-X 8ddn
.	8r	8e-J 8g 8cc
.	4.G 4.e- 4.g	4.dd 4.gg 4.bb-
=445	=445	=445
2.r	4C-X 4G-X 4c-X	8r
.	.	8e-L 8g-X 8cc-X
.	8EEE- 8EE-	8g-J 8b- 8ee-
.	4.CC-X 4.C-	8r
.	.	8e-L 8g- 8b-
.	.	8c-XJ 8e- 8a-
=446	=446	=446
2.r	4AA- 4G-X 4d-X	8r
.	.	8b-L 8dd-X 8gg-X
.	8EEE- 8EE-	8dd-J 8ff 8bb-
.	4.AAA- 4.AA-	8r
.	.	8b-L 8dd- 8ff
.	.	8g-XJ 8b- 8ee-
=447	=447	=447
2.r	4BB-- 4F-X 4d-X	8r
.	.	8bb--L 8ddd-X 8ggg-X
.	8EEE- 8EE-	8ddd-J 8fff-X 8aaa-
.	4BBB-- 4BB--	8ff-XL 8bb-- 8ddd-
.	.	8aa- 8ddd- 8fff-
.	16r	8dd-XJ 8ff- 8bb--
.	16D-X 16d-	.
=448	=448	=448
2.r	4.D-X 4.d-X	8ff-XL 8aa- 8ddd-X
.	.	8b-- 8dd-X 8gg-X
.	.	8dd-J 8ff- 8aa-
.	4r	8f-XL 8b-- 8dd-
.	.	8a- 8dd- 8ff-
.	8r	8d-XJ 8f- 8b--
=449	=449	=449
2.r	4EE- 4BB-- 4F-X	8r
.	.	8b--L 8dd-X 8gg-X
.	16r	8dd-J 8ff-X 8aa-
.	16D-X 16d-X	.
.	4.D- 4.d-	8f-XL 8b-- 8dd-
.	.	8a- 8dd- 8ff-
.	.	8d-XJ 8f- 8b--
=450	=450	=450
2.r	2.r	8f-XL 8a- 8dd-X
.	.	8B-- 8d-X 8g-X
.	.	8d-J 8f- 8a-
*	*	*clefF4
.	.	8F-XL 8B-- 8d-X
.	.	8A- 8d- 8f-X
.	.	8D-XJ 8F- 8B--
=451	=451	=451
*M2/4	*M2/4	*M2/4
.	8qDDD#X/	.
2r	8AAAn	8r
.	.	32qqEEn/LLL
.	.	32qqAAn/
.	.	32qqBBn/
.	.	32qqC#X/JJJ
.	8r	8D#X
.	8qAAA/	.
.	8EEn	8r
.	.	32qqAA/LLL
.	.	32qqC#/
.	.	32qqEn/
.	.	32qqF#X/JJJ
.	8r	8G#X
=452	=452	=452
.	8qDD#X/	.
2r	8AAn	8r
.	.	32qqEn/LLL
.	.	32qqAn/
.	.	32qqBn/
.	.	32qqc#X/JJJ
.	8r	8d#X
*	*	*clefG2
.	8qAA/	.
.	8En	8r
.	.	32qqAn/LLL
.	.	32qqc#X/
.	.	32qqen/
.	.	32qqf#X/JJJ
.	8r	8g#X
=453	=453	=453
.	8qD#X/	.
2r	8An	8r
.	.	32qqen/LLL
.	.	32qqan/
.	.	32qqbn/
.	.	32qqcc#X/JJJ
.	8r	8dd#X
.	8qA/	.
.	8en	8r
.	.	32qqa/LLL
.	.	32qqcc#/
.	.	32qqeen/
.	.	32qqff#X/JJJ
.	8r	8gg#X
=454	=454	=454
*	*clefG2	*
.	8qd#X/	.
2r	8an	8r
.	.	32qqeen/LLL
.	.	32qqaan/
.	.	32qqbbn/
.	.	32qqccc#X/JJJ
.	8r	8ddd#X
.	8qa/	.
.	8een	8r
.	.	32qqaa/LLL
.	.	32qqccc#/
.	.	32qqeeen/
.	.	32qqfff#X/JJJ
.	8r	8ggg#X
=455	=455	=455
.	8qdd#X/	.
2r	8aan	8r
.	.	32qqeeen/LLL
.	.	32qqaaan/
.	.	32qqbbbn/
.	.	32qqcccc#X/JJJ
.	8r	8dddd#X
.	8qaa/	.
.	8eeen	8r
.	.	32qqaaa/LLL
.	.	32qqcccc#/
.	.	32qqeeeen/
.	.	32qqffff#X/JJJ
.	8r	8gggg#X
=456	=456	=456
2r	2r	2r
==	==	==
*-	*-	*-
!!!system-decoration: {(s1,s2,s3)}
